;FLAVOR:Marlin
M73 P0
M117 Time Left 0h15m36s
;TIME:936
;Filament used: 0.0741903m, 0.10458m, 0.0743082m, 0.0744001m, 0.0816697m, 0.0818765m, 0.0821744m, 0.0823783m
;Layer height: 0.15
;MINX:21.749
;MINY:20.309
;MINZ:0.3
;MAXX:234.747
;MAXY:56.527
;MAXZ:1.45
;POSTPROCESSED
;Generated with Cura_SteamEngine 4.8.0
T1
M82 ;absolute extrusion mode
;Start Script
	G28 R5 ; Autohome if unknown
	M140 S65 ; start preheating the bed
	;G29 ; Bed leveling

	G90 ; Absolute Positioning
	M82 ; E Absolute independant of G91 (Relative)
	G92 E0 ; Set Position
	G1 Z15 F1700 ; Lift up (1800 is max)
	
	G0 X0 F9000; Go to bucket
	M211 S0 ; Disable SoftStops
	G0 X-2 F500; Go to bucket Closer
	M211 S1 ; Enable SoftStops
	
	M107 ; Fan Off
	M412 S1 ; Enable Runout Sensor

	;Set Mix for Virtual Tools
		M163 S0 P0.8
		M163 S1 P0.2
		M163 S2 P0.0
		M164 S3 ;T3

		M163 S0 P0.6
		M163 S1 P0.4
		M163 S2 P0.0
		M164 S4 ;T4

		M163 S0 P0.8
		M163 S1 P0.0
		M163 S2 P0.2
		M164 S5 ;T5

		M163 S0 P0.6
		M163 S1 P0.0
		M163 S2 P0.4
		M164 S6 ;T6

		M163 S0 P0.1
		M163 S1 P0.1
		M163 S2 P0.8
		M164 S7 ;T7
	;/Virtual Tools

	;/Colour mixing:
		;M165 A0 B0.5 C0.5 ; Set Mix for current tool
	
	M104 S200 ; start preheating hotend
	M190 S65 ; wait for Cura Bed setting
	M109 S200 ; wait for Cura Hotend
;/Start Script
G92 E0
;Change Tool
	G1 F2700 E-5 ; Retract (45ms)
	G90 ; Absolute Positioning
	G0 X0 F9000; Go to bucket
	M211 S0 ; Disable SoftStops
	G0 X-2 F500; Go to bucket Closer
	G1 E0 F2700 ; Recover
	
	G1 E50 F50 ; Extrude into Bucket
	G92 E0 ; Set current extruder position to 0
	G4 S1 ; Pause 1 second
	G0 X10 F1000 ; Wipe
	G0 X-2 F1000 ; Wipe
	G0 X10 F6000 ; Wipe
	G0 X-2 F6000 ; Wipe
	M211 S1 ; Enable SoftStops
;/Change Tool
G92 E0
G1 F2700 E-6
;LAYER_COUNT:2
;LAYER:0
M106 S127.5
G0 F2880 X29.978 Y28.949 Z0.3
;TYPE:SKIRT
G1 F2700 E0
G1 F1200 X30.44 Y28.489 E0.02277
G1 X30.621 Y28.321 E0.03139
G1 X31.109 Y27.896 E0.05399
G1 X31.302 Y27.739 E0.06268
G1 X31.858 Y27.317 E0.08706
G1 X32.061 Y27.173 E0.09575
G1 X32.634 Y26.796 E0.1197
G1 X32.843 Y26.669 E0.12824
G1 X33.379 Y26.365 E0.14976
G1 X33.604 Y26.247 E0.15864
G1 X34.242 Y25.941 E0.18335
G1 X34.466 Y25.842 E0.1919
G1 X35.1 Y25.588 E0.21575
G1 X35.335 Y25.503 E0.22448
G1 X35.964 Y25.299 E0.24757
G1 X36.205 Y25.23 E0.25633
G1 X36.839 Y25.071 E0.27915
G1 X37.08 Y25.019 E0.28776
G1 X37.748 Y24.898 E0.31147
G1 X37.993 Y24.862 E0.32012
G1 X38.677 Y24.785 E0.34416
G1 X38.925 Y24.766 E0.35285
G1 X39.571 Y24.737 E0.37543
G1 X39.82 Y24.734 E0.38413
G1 X40.532 Y24.75 E0.409
G1 X40.781 Y24.764 E0.41771
G1 X42.809 Y24.947 E0.48882
G1 X44.171 Y25.078 E0.5366
G1 X46.923 Y25.263 E0.63293
G1 X49.611 Y25.367 E0.72687
G1 X52.371 Y25.397 E0.82327
G1 X55.063 Y25.349 E0.91729
G1 X57.781 Y25.225 E1.01231
G1 X60.499 Y25.023 E1.1075
G1 X62.235 Y24.841 E1.16846
G1 X63.195 Y24.758 E1.20211
G1 X63.779 Y24.732 E1.22252
G1 X64.34 Y24.734 E1.24211
G1 X65.077 Y24.769 E1.26788
G1 X65.325 Y24.789 E1.27657
G1 X67.066 Y24.99 E1.33778
G1 X69.779 Y25.264 E1.433
G1 X72.494 Y25.46 E1.52807
G1 X75.183 Y25.579 E1.62207
G1 X77.945 Y25.623 E1.71854
G1 X80.666 Y25.59 E1.81357
G1 X83.393 Y25.478 E1.90889
G1 X86.107 Y25.29 E2.00389
G1 X88.847 Y25.022 E2.10004
G1 X90.944 Y24.786 E2.17374
G1 X91.194 Y24.767 E2.18249
G1 X91.871 Y24.737 E2.20616
G1 X92.119 Y24.734 E2.21482
G1 X92.82 Y24.75 E2.23931
G1 X93.07 Y24.764 E2.24805
G1 X94.557 Y24.9 E2.3002
G1 X95.342 Y24.987 E2.32778
G1 X98.083 Y25.212 E2.42383
G1 X100.81 Y25.358 E2.5192
G1 X103.531 Y25.428 E2.61426
G1 X106.257 Y25.419 E2.70946
G1 X108.981 Y25.334 E2.80464
G1 X111.663 Y25.175 E2.89846
G1 X114.356 Y24.938 E2.99288
G1 X116.128 Y24.769 E3.05504
G1 X116.376 Y24.753 E3.06372
G1 X117.052 Y24.734 E3.08734
G1 X117.3 Y24.736 E3.096
G1 X118.018 Y24.764 E3.12109
G1 X118.269 Y24.782 E3.12988
G1 X119.672 Y24.933 E3.17916
G1 X122.404 Y25.187 E3.27498
G1 X125.087 Y25.36 E3.36887
G1 X127.844 Y25.459 E3.46522
G1 X130.569 Y25.481 E3.56039
G1 X133.262 Y25.425 E3.65446
G1 X136.013 Y25.292 E3.75064
G1 X138.724 Y25.082 E3.8456
G1 X140.247 Y24.924 E3.89908
G1 X141.436 Y24.804 E3.94081
G1 X141.553 Y24.794 E3.94491
G1 X142.218 Y24.748 E3.96819
G1 X142.462 Y24.739 E3.97672
G1 X143.165 Y24.737 E4.00127
G1 X143.41 Y24.744 E4.00983
G1 X144.119 Y24.789 E4.03464
G1 X144.674 Y24.842 E4.05411
G1 X146.028 Y25.002 E4.10172
G1 X148.744 Y25.246 E4.19696
G1 X151.47 Y25.414 E4.29234
G1 X154.193 Y25.504 E4.38749
G1 X156.919 Y25.518 E4.48269
G1 X159.638 Y25.454 E4.57767
G1 X162.363 Y25.312 E4.67297
G1 X165.071 Y25.095 E4.76784
G1 X166.63 Y24.922 E4.82262
G1 X168.234 Y24.769 E4.87889
G1 X168.481 Y24.753 E4.88753
G1 X169.157 Y24.734 E4.91115
G1 X169.407 Y24.736 E4.91988
G1 X170.139 Y24.765 E4.94547
G1 X170.387 Y24.783 E4.95415
G1 X172.041 Y24.96 E5.01224
G1 X174.782 Y25.215 E5.10838
G1 X177.46 Y25.387 E5.2021
G1 X180.222 Y25.486 E5.29862
G1 X182.946 Y25.508 E5.39375
G1 X185.633 Y25.453 E5.48761
G1 X188.394 Y25.317 E5.58415
G1 X191.086 Y25.109 E5.67844
G1 X192.556 Y24.948 E5.73009
G1 X194.431 Y24.769 E5.79587
G1 X194.679 Y24.753 E5.80454
G1 X195.356 Y24.734 E5.8282
G1 X195.607 Y24.736 E5.83696
G1 X196.411 Y24.768 E5.86506
G1 X196.974 Y24.808 E5.88477
G1 X198.522 Y24.952 E5.93907
M73 P1
G1 X201.204 Y25.124 E6.03292
G1 X203.964 Y25.223 E6.12937
G1 X206.689 Y25.245 E6.22454
G1 X209.378 Y25.19 E6.31847
G1 X212.146 Y25.054 E6.41526
G1 X215.198 Y24.813 E6.52217
G1 X215.901 Y24.753 E6.54681
G1 X216.573 Y24.734 E6.57029
G1 X216.827 Y24.736 E6.57916
G1 X217.547 Y24.765 E6.60433
G1 X217.788 Y24.783 E6.61277
G1 X218.392 Y24.847 E6.63398
G1 X218.641 Y24.882 E6.64276
G1 X219.36 Y25.008 E6.66825
G1 X219.605 Y25.059 E6.67699
G1 X220.219 Y25.21 E6.69907
G1 X220.458 Y25.277 E6.70774
G1 X221.086 Y25.477 E6.73076
G1 X221.323 Y25.562 E6.73955
G1 X222.006 Y25.832 E6.7652
G1 X222.227 Y25.928 E6.77361
G1 X222.777 Y26.188 E6.79486
G1 X223.001 Y26.303 E6.80365
G1 X223.604 Y26.64 E6.82778
G1 X223.82 Y26.771 E6.8366
G1 X224.395 Y27.146 E6.86057
G1 X224.588 Y27.28 E6.86878
G1 X225.105 Y27.666 E6.89131
G1 X225.308 Y27.83 E6.90043
G1 X225.819 Y28.271 E6.924
G1 X226 Y28.437 E6.93258
G1 X226.498 Y28.928 E6.957
G1 X226.67 Y29.11 E6.96574
G1 X227.079 Y29.572 E6.98729
G1 X227.236 Y29.762 E6.9959
G1 X227.676 Y30.331 E7.02102
G1 X227.823 Y30.535 E7.0298
G1 X228.188 Y31.08 E7.05271
G1 X228.317 Y31.286 E7.0612
G1 X228.649 Y31.86 E7.08435
G1 X228.769 Y32.087 E7.09332
G1 X229.066 Y32.694 E7.11692
G1 X229.164 Y32.91 E7.1252
G1 X229.422 Y33.536 E7.14885
G1 X229.512 Y33.779 E7.1579
G1 X229.717 Y34.396 E7.18061
G1 X229.786 Y34.629 E7.18909
G1 X229.968 Y35.327 E7.21428
G1 X230.023 Y35.57 E7.22298
G1 X230.135 Y36.159 E7.24392
G1 X230.174 Y36.409 E7.25276
G1 X230.272 Y37.226 E7.2815
G1 X230.324 Y38.075 E7.3112
G1 X230.322 Y38.671 E7.33202
G1 X230.286 Y39.411 E7.35789
G1 X230.265 Y39.656 E7.36648
G1 X230.189 Y40.313 E7.38957
G1 X230.154 Y40.55 E7.39794
G1 X230.028 Y41.243 E7.42254
G1 X229.971 Y41.503 E7.43184
G1 X229.815 Y42.109 E7.45369
G1 X229.75 Y42.334 E7.46187
G1 X229.541 Y42.975 E7.48541
G1 X229.454 Y43.214 E7.4943
G1 X229.193 Y43.86 E7.51863
G1 X229.093 Y44.084 E7.52719
G1 X228.804 Y44.682 E7.55039
G1 X228.684 Y44.911 E7.55942
G1 X228.353 Y45.489 E7.58268
G1 X228.228 Y45.691 E7.59098
G1 X227.853 Y46.258 E7.61472
G1 X227.709 Y46.461 E7.62341
G1 X227.32 Y46.971 E7.64581
G1 X227.162 Y47.164 E7.65452
G1 X226.691 Y47.702 E7.67949
G1 X226.518 Y47.887 E7.68834
G1 X226.056 Y48.347 E7.7111
G1 X225.875 Y48.515 E7.71973
G1 X225.387 Y48.94 E7.74233
G1 X225.194 Y49.097 E7.75102
G1 X224.638 Y49.519 E7.77539
G1 X224.435 Y49.663 E7.78409
G1 X223.862 Y50.04 E7.80804
G1 X223.653 Y50.167 E7.81658
G1 X223.117 Y50.471 E7.8381
G1 X222.892 Y50.589 E7.84697
G1 X222.254 Y50.895 E7.87168
G1 X222.03 Y50.994 E7.88024
G1 X221.396 Y51.248 E7.90409
G1 X221.161 Y51.333 E7.91282
G1 X220.532 Y51.537 E7.93591
G1 X220.291 Y51.606 E7.94466
G1 X219.657 Y51.765 E7.96749
G1 X219.416 Y51.817 E7.9761
G1 X218.748 Y51.938 E7.99981
G1 X218.503 Y51.974 E8.00846
G1 X217.819 Y52.051 E8.0325
G1 X217.571 Y52.07 E8.04118
G1 X216.925 Y52.099 E8.06377
G1 X216.676 Y52.102 E8.07246
G1 X215.962 Y52.086 E8.0974
G1 X215.71 Y52.072 E8.10622
G1 X214.752 Y51.985 E8.13981
G1 X212.056 Y51.779 E8.23424
G1 X209.298 Y51.648 E8.33067
G1 X206.609 Y51.594 E8.42459
G1 X203.849 Y51.619 E8.52098
G1 X201.162 Y51.719 E8.61489
G1 X198.427 Y51.898 E8.71061
G1 X197.524 Y51.984 E8.74229
G1 X196.577 Y52.058 E8.77546
G1 X195.694 Y52.099 E8.80633
G1 X195.445 Y52.102 E8.81503
G1 X194.744 Y52.086 E8.83951
G1 X194.492 Y52.072 E8.84833
G1 X193.486 Y51.979 E8.88361
G1 X191.372 Y51.749 E8.95787
G1 X188.655 Y51.532 E9.05306
G1 X185.932 Y51.39 E9.14829
G1 X183.208 Y51.325 E9.24344
G1 X180.485 Y51.339 E9.33854
G1 X177.758 Y51.428 E9.43383
M73 P2
G1 X175.062 Y51.594 E9.52816
G1 X171.506 Y51.928 E9.65289
G1 X170.421 Y52.049 E9.69102
G1 X170.179 Y52.068 E9.69949
G1 X169.499 Y52.099 E9.72327
G1 X169.246 Y52.102 E9.7321
G1 X168.544 Y52.086 E9.75663
G1 X168.292 Y52.072 E9.76544
G1 X167.328 Y51.983 E9.79925
G1 X165.089 Y51.74 E9.8779
G1 X162.367 Y51.52 E9.97327
G1 X159.646 Y51.379 E10.06843
G1 X156.923 Y51.314 E10.16355
G1 X154.199 Y51.328 E10.25868
G1 X151.473 Y51.417 E10.35393
G1 X148.756 Y51.584 E10.449
G1 X146.041 Y51.828 E10.54419
G1 X144.49 Y52.002 E10.5987
G1 X143.753 Y52.079 E10.62458
G1 X143.174 Y52.104 E10.64482
G1 X142.615 Y52.102 E10.66434
G1 X141.874 Y52.067 E10.69025
G1 X141.622 Y52.046 E10.69908
G1 X141.072 Y51.982 E10.71842
G1 X138.325 Y51.704 E10.81484
G1 X135.61 Y51.506 E10.90991
G1 X132.924 Y51.388 E11.0038
G1 X130.162 Y51.344 E11.10027
G1 X127.438 Y51.377 E11.19541
G1 X124.716 Y51.488 E11.29055
G1 X121.999 Y51.676 E11.38566
G1 X119.238 Y51.946 E11.48255
G1 X118.317 Y52.05 E11.51491
G1 X118.066 Y52.069 E11.5237
G1 X117.389 Y52.099 E11.54737
G1 X117.141 Y52.102 E11.55603
G1 X116.44 Y52.086 E11.58052
G1 X116.19 Y52.072 E11.58926
G1 X114.703 Y51.936 E11.64141
G1 X113.918 Y51.849 E11.66899
G1 X111.177 Y51.624 E11.76504
G1 X108.45 Y51.478 E11.86041
G1 X105.729 Y51.408 E11.95547
G1 X103.003 Y51.417 E12.05067
G1 X100.279 Y51.502 E12.14585
G1 X97.597 Y51.661 E12.23968
G1 X94.904 Y51.898 E12.33409
G1 X93.132 Y52.067 E12.39625
G1 X92.884 Y52.083 E12.40493
G1 X92.208 Y52.102 E12.42855
G1 X91.955 Y52.1 E12.43738
G1 X91.235 Y52.071 E12.46255
G1 X90.991 Y52.053 E12.47109
G1 X88.996 Y51.84 E12.54116
G1 X87.476 Y51.669 E12.59458
G1 X84.76 Y51.442 E12.68976
G1 X82.072 Y51.292 E12.78378
G1 X79.313 Y51.217 E12.88017
G1 X76.589 Y51.221 E12.9753
G1 X73.899 Y51.3 E13.06928
G1 X71.145 Y51.459 E13.16562
G1 X68.465 Y51.69 E13.25956
G1 X66.077 Y51.974 E13.34355
G1 X65.525 Y52.031 E13.36293
G1 X65.4 Y52.042 E13.36731
G1 X64.735 Y52.088 E13.39059
G1 X64.491 Y52.097 E13.39912
G1 X63.788 Y52.099 E13.42367
G1 X63.543 Y52.092 E13.43223
G1 X62.818 Y52.046 E13.4576
G1 X61.416 Y51.91 E13.50679
G1 X58.639 Y51.676 E13.60411
G1 X55.955 Y51.527 E13.69799
G1 X53.195 Y51.452 E13.79442
G1 X50.471 Y51.456 E13.88955
G1 X47.781 Y51.535 E13.98353
G1 X45.027 Y51.694 E14.07987
G1 X42.783 Y51.882 E14.15851
G1 X40.842 Y52.067 E14.2266
G1 X40.594 Y52.083 E14.23528
G1 X39.921 Y52.102 E14.2588
G1 X39.669 Y52.1 E14.2676
G1 X38.946 Y52.071 E14.29287
G1 X38.705 Y52.053 E14.30131
G1 X38.1 Y51.989 E14.32255
G1 X37.848 Y51.954 E14.33144
G1 X37.143 Y51.83 E14.35644
G1 X36.902 Y51.779 E14.36504
G1 X36.279 Y51.626 E14.38744
G1 X36.038 Y51.559 E14.39618
G1 X35.41 Y51.359 E14.4192
G1 X35.173 Y51.274 E14.42799
G1 X34.49 Y51.004 E14.45364
G1 X34.266 Y50.907 E14.46216
G1 X33.715 Y50.646 E14.48345
G1 X33.496 Y50.533 E14.49206
G1 X32.894 Y50.197 E14.51614
G1 X32.676 Y50.065 E14.52504
G1 X32.101 Y49.69 E14.54901
G1 X31.907 Y49.555 E14.55727
G1 X31.389 Y49.168 E14.57985
G1 X31.187 Y49.005 E14.58891
G1 X30.676 Y48.564 E14.61248
G1 X30.496 Y48.398 E14.62104
G1 X30.011 Y47.92 E14.64482
G1 X29.835 Y47.735 E14.65373
G1 X29.387 Y47.228 E14.67736
G1 X29.231 Y47.039 E14.68592
G1 X28.831 Y46.521 E14.70878
G1 X28.688 Y46.322 E14.71733
G1 X28.306 Y45.753 E14.74127
G1 X28.174 Y45.541 E14.74999
G1 X27.846 Y44.973 E14.7729
G1 X27.727 Y44.749 E14.78175
G1 X27.43 Y44.142 E14.80535
G1 X27.332 Y43.926 E14.81364
G1 X27.074 Y43.3 E14.83728
G1 X26.983 Y43.055 E14.84641
G1 X26.778 Y42.437 E14.86915
G1 X26.71 Y42.207 E14.87753
G1 X26.528 Y41.51 E14.90268
G1 X26.473 Y41.264 E14.91149
M73 P3
G1 X26.361 Y40.673 E14.93249
G1 X26.322 Y40.426 E14.94123
G1 X26.224 Y39.611 E14.96989
G1 X26.172 Y38.761 E14.99963
G1 X26.174 Y38.164 E15.02048
G1 X26.21 Y37.426 E15.04629
G1 X26.23 Y37.181 E15.05487
G1 X26.306 Y36.523 E15.078
G1 X26.342 Y36.286 E15.08638
G1 X26.468 Y35.593 E15.11097
G1 X26.525 Y35.333 E15.12027
G1 X26.681 Y34.727 E15.14212
G1 X26.746 Y34.502 E15.1503
G1 X26.955 Y33.861 E15.17385
G1 X27.042 Y33.624 E15.18266
G1 X27.303 Y32.977 E15.20703
G1 X27.404 Y32.749 E15.21574
G1 X27.693 Y32.152 E15.2389
G1 X27.812 Y31.925 E15.24785
G1 X28.143 Y31.347 E15.27111
G1 X28.268 Y31.145 E15.27941
G1 X28.643 Y30.578 E15.30315
G1 X28.787 Y30.375 E15.31184
G1 X29.176 Y29.865 E15.33424
G1 X29.334 Y29.672 E15.34295
G1 X29.472 Y29.515 E15.35025
G0 F1080 X29.805 Y29.134
G0 X29.978 Y28.949
G0 F2880 X30.176 Y29.147
;Removed any temp changes directed at Ts: M104 T[0-7]+ S200
G1 F1200 X30.638 Y28.687 E15.37302
G1 X30.805 Y28.532 E15.38098
G1 X31.293 Y28.107 E15.40358
G1 X31.471 Y27.962 E15.4116
G1 X32.027 Y27.54 E15.43597
G1 X32.215 Y27.407 E15.44401
G1 X32.788 Y27.03 E15.46797
G1 X32.981 Y26.912 E15.47587
G1 X33.517 Y26.608 E15.49739
G1 X33.725 Y26.499 E15.50559
G1 X34.363 Y26.193 E15.5303
G1 X34.57 Y26.102 E15.5382
G1 X35.204 Y25.848 E15.56205
G1 X35.421 Y25.77 E15.5701
G1 X36.05 Y25.566 E15.5932
G1 X36.273 Y25.502 E15.6013
G1 X36.907 Y25.343 E15.62412
G1 X37.129 Y25.295 E15.63206
G1 X37.797 Y25.174 E15.65577
G1 X38.024 Y25.14 E15.66378
G1 X38.708 Y25.063 E15.68782
G1 X38.938 Y25.045 E15.69588
G1 X39.584 Y25.016 E15.71846
G1 X39.814 Y25.014 E15.72649
G1 X40.526 Y25.03 E15.75136
G1 X40.756 Y25.043 E15.75941
G1 X42.782 Y25.226 E15.83045
G1 X44.158 Y25.358 E15.87873
G1 X46.896 Y25.542 E15.97456
G1 X49.597 Y25.647 E16.06896
G1 X52.373 Y25.677 E16.16591
G1 X55.081 Y25.629 E16.2605
G1 X57.78 Y25.506 E16.35485
G1 X60.551 Y25.299 E16.4519
G1 X62.259 Y25.12 E16.51187
G1 X63.219 Y25.037 E16.54552
G1 X63.79 Y25.011 E16.56548
G1 X64.326 Y25.014 E16.5842
G1 X65.063 Y25.049 E16.60997
G1 X65.293 Y25.068 E16.61803
G1 X66.985 Y25.263 E16.67751
G1 X69.762 Y25.543 E16.77499
G1 X72.462 Y25.738 E16.86952
G1 X75.203 Y25.86 E16.96534
G1 X77.944 Y25.903 E17.06108
G1 X80.681 Y25.869 E17.15667
G1 X83.387 Y25.758 E17.25125
G1 X86.118 Y25.57 E17.34685
G1 X88.893 Y25.298 E17.44423
G1 X90.976 Y25.064 E17.51743
G1 X91.207 Y25.046 E17.52552
G1 X91.884 Y25.016 E17.54919
G1 X92.113 Y25.014 E17.55719
G1 X92.814 Y25.03 E17.58167
G1 X93.045 Y25.043 E17.58975
G1 X94.526 Y25.178 E17.64169
G1 X95.323 Y25.266 E17.66969
G1 X98.08 Y25.492 E17.7663
G1 X100.788 Y25.638 E17.86101
G1 X103.525 Y25.708 E17.95662
G1 X106.267 Y25.699 E18.05238
G1 X108.972 Y25.615 E18.1469
G1 X111.705 Y25.452 E18.24251
G1 X114.353 Y25.219 E18.33534
G1 X116.155 Y25.047 E18.39856
G1 X116.384 Y25.033 E18.40657
G1 X117.06 Y25.014 E18.43019
G1 X117.289 Y25.016 E18.43819
G1 X118.007 Y25.044 E18.46328
G1 X118.24 Y25.061 E18.47144
G1 X119.623 Y25.21 E18.52002
G1 X122.36 Y25.464 E18.61602
G1 X125.094 Y25.641 E18.7117
G1 X127.832 Y25.739 E18.80738
G1 X130.573 Y25.761 E18.9031
G1 X133.28 Y25.705 E18.99766
G1 X136.012 Y25.573 E19.09318
G1 X138.739 Y25.362 E19.1887
G1 X140.276 Y25.202 E19.24267
G1 X141.465 Y25.082 E19.2844
G1 X142.237 Y25.027 E19.31143
G1 X142.463 Y25.019 E19.31933
G1 X143.166 Y25.017 E19.34388
G1 X143.393 Y25.024 E19.35181
G1 X144.102 Y25.069 E19.37662
G1 X144.647 Y25.121 E19.39574
G1 X146.01 Y25.281 E19.44367
G1 X148.704 Y25.523 E19.53813
G1 X151.477 Y25.694 E19.63516
G1 X154.182 Y25.784 E19.72968
G1 X156.923 Y25.798 E19.8254
G1 X159.659 Y25.734 E19.92098
G1 X162.368 Y25.593 E20.01571
M73 P4
G1 X165.091 Y25.375 E20.11111
G1 X166.656 Y25.2 E20.16611
G1 X168.26 Y25.047 E20.22238
G1 X168.489 Y25.033 E20.23039
G1 X169.165 Y25.014 E20.25401
G1 X169.396 Y25.016 E20.26208
G1 X170.128 Y25.045 E20.28766
