;FLAVOR:Marlin
M73 P0
M117 Time Left 0h01m42s
;TIME:102
;Filament used: 0m, 0.0627705m, 0.0627461m, 0m
;Layer height: 0.3
;MINX:113.713
;MINY:112.884
;MINZ:0.3
;MAXX:139.161
;MAXY:139.199
;MAXZ:1.6
;POSTPROCESSED
;Generated with Cura_SteamEngine 4.8.0
T1
M82 ;absolute extrusion mode
;Start Script
	G28 R5 ; Autohome if unknown
	M140 S55 ; start preheating the bed
	;G29 ; Bed leveling

	G90 ; Absolute Positioning
	M82 ; E Absolute
	G92 E0 ; Set Position
	G1 Z15 F3000 ; Lift up
	G0 X1 Y10 F3000 ; Get Nozzle out the way from centre
	M107 ; Fan Off
	M412 S1 ; Enable Runout Sensor

	M104 S215 ; start preheating hotend
	M190 S55 ; wait for Cura Bed setting
	M109 S215 ; wait for Cura Hotend
;/Start Script

;End Script
	G91 ; Set the interpreter to relative positions
	G1 E-1 ; Retract 1mm
	G0 Z10 ; Lift up by 10mm (relative)
	G0 X0 Y100 ; Move Bed forward by 100
	M104 S0 ; Swith off Hotend
	M140 S0 ; Switch off Bed
	G90 ; Absolute positioning
	G92 E0 ; Set position
	M84 ; Disable Steppers
;/End Script
G92 E0
;Change Tool
	;Only for Extruder 4+ ()
	;M165 A0.5 B0.5 C0 ;  M163 and M163 alternative throws errors as  not available.
	
	M117 Changing Tool
	G0 X0 F5000; Go to bucket
	M211 S0 ; Disable SoftStops
	G0 X-2 F500; Go to bucket Closer
	G1 E0 F2700 ; Recover
	G1 E30 F150 ; Extrude into Bucket
	G92 E0 ; Set current extruder position to 0
	G1 F2700 E-7 ; Retract to try and slow oooze.

	G4 S5 ; Pause 1 second
		G0 X10 F500 ; Wipe
		G0 X-2 F500 ; Wipe
		G0 X10 F6000 ; Wipe
		G0 X-2 F6000 ; Wipe
		G0 X10 F6000 ; Wipe
		G0 X-2 F6000 ; Wipe
		G0 X10 F6000 ; Wipe
		G0 X-2 F6000 ; Wipe
	G1 E0 F2700 ; Recover as Cura may apply it's own retract and G92 E0 and there is no filament ready.
	G92 E0 ; Set current extruder position to 0
	M211 S1 ; Enable SoftStops
;/Change Tool
G92 E0
G1 F2700 E-7
;LAYER_COUNT:2
;LAYER:0
M107
M104 T2 S215
;MESH:Yang.stl
G0 F3600 X126.403 Y118.507 Z0.3
;TYPE:WALL-INNER
G1 F2700 E0
G1 F1800 X126.744 Y118.668 E0.01881
G1 X127.004 Y118.892 E0.03594
G1 X127.199 Y119.16 E0.05247
G1 X127.314 Y119.475 E0.0692
G1 X127.358 Y119.794 E0.08527
G1 X127.315 Y120.109 E0.10113
G1 X127.197 Y120.432 E0.11828
G1 X127.01 Y120.689 E0.13414
G1 X126.741 Y120.919 E0.1518
G1 X126.403 Y121.079 E0.17045
G1 X126.013 Y121.137 E0.19013
G1 X125.622 Y121.079 E0.20985
G1 X125.265 Y120.91 E0.22955
G1 X124.98 Y120.653 E0.2487
G1 X124.822 Y120.414 E0.26299
G1 X124.7 Y120.071 E0.28115
G1 X124.671 Y119.778 E0.29584
G1 X124.726 Y119.409 E0.31446
G1 X124.836 Y119.146 E0.32868
G1 X125.049 Y118.859 E0.34651
M73 P1
G1 X125.327 Y118.643 E0.36407
G1 X125.621 Y118.508 E0.38021
G1 X126.013 Y118.449 E0.39999
G1 X126.403 Y118.507 E0.41966
G0 F3600 X126.374 Y118.602
G0 X126.374 Y120.984
G0 X126.519 Y121.467
;TYPE:WALL-OUTER
G1 F1800 X126.013 Y121.542 E0.44518
G1 X125.507 Y121.467 E0.4707
G1 X125.039 Y121.245 E0.49654
G1 X124.676 Y120.917 E0.52095
G1 X124.461 Y120.593 E0.54035
G1 X124.307 Y120.161 E0.56323
G1 X124.268 Y119.766 E0.58304
G1 X124.337 Y119.303 E0.60639
G1 X124.485 Y118.948 E0.62558
G1 X124.761 Y118.576 E0.64869
G1 X125.118 Y118.299 E0.67123
G1 X125.506 Y118.12 E0.69255
G1 X126.013 Y118.044 E0.71813
G1 X126.521 Y118.12 E0.74375
G1 X126.963 Y118.329 E0.76815
G1 X127.303 Y118.622 E0.79054
G1 X127.556 Y118.97 E0.812
G1 X127.704 Y119.376 E0.83356
M73 P2
G1 X127.762 Y119.793 E0.85457
G1 X127.705 Y120.208 E0.87547
G1 X127.555 Y120.619 E0.89729
G1 X127.304 Y120.964 E0.91858
G1 X126.961 Y121.257 E0.94108
G1 X126.519 Y121.467 E0.9655
G0 F3600 X126.321 Y121.496
G0 X126.287 Y120.702
;TYPE:SKIN
G1 F1800 X126.013 Y120.743 E0.97932
G1 X125.74 Y120.702 E0.99309
G1 X125.481 Y120.58 E1.00738
G1 X125.277 Y120.395 E1.02112
G1 X125.172 Y120.238 E1.03054
G1 X125.084 Y119.988 E1.04376
G1 X125.064 Y119.789 E1.05374
G1 X125.105 Y119.515 E1.06756
G1 X125.178 Y119.34 E1.07702
G1 X125.332 Y119.133 E1.08989
G1 X125.529 Y118.98 E1.10234
G1 X125.733 Y118.886 E1.11354
G1 X126.015 Y118.843 E1.12778
G1 X126.289 Y118.885 E1.14161
G1 X126.528 Y118.997 E1.15477
G1 X126.717 Y119.161 E1.16726
G1 X126.85 Y119.344 E1.17854
G1 X126.964 Y119.794 E1.2017
M73 P3
G1 X126.935 Y120.01 E1.21258
G1 X126.849 Y120.246 E1.22511
G1 X126.719 Y120.424 E1.23611
G1 X126.528 Y120.588 E1.24866
G1 X126.287 Y120.702 E1.26197
G0 F3600 X125.271 Y119.614
G1 F1800 X126.19 Y120.533 E1.32681
G0 F3600 X126.552 Y120.329
G1 F1800 X125.473 Y119.251 E1.4029
G0 F3600 X125.84 Y119.052
G1 F1800 X126.758 Y119.97 E1.46767
G1 X126.828 Y120.04
G1 F2700 E-5.53233
G0 F3600 X126.013 Y121.117
G0 X123.178 Y114.082
G0 X121.229 Y115.246
G0 X120.43 Y116.261
G0 X119.873 Y117.354
G0 X119.514 Y118.611
G0 X119.41 Y119.947
G0 X119.509 Y120.999
G0 X119.808 Y122.082
G0 X124.021 Y133.314
G0 X125.316 Y134.595
;TYPE:WALL-INNER
G1 F2700 E1.46767
M73 P4
G1 F1800 X125.99 Y134.696 E1.50167
G1 X126.115 Y134.688 E1.50792
G1 X126.71 Y134.594 E1.53797
G1 X127.3 Y134.321 E1.57041
G1 X127.755 Y133.948 E1.59976
G1 X128.134 Y133.426 E1.63194
G1 X128.355 Y132.819 E1.66417
G1 X128.417 Y132.289 E1.69079
G1 X128.332 Y131.661 E1.72241
G1 X128.13 Y131.156 E1.74954
G1 X127.754 Y130.637 E1.78152
G1 X127.293 Y130.26 E1.81123
G1 X126.712 Y129.993 E1.84313
G1 X126.116 Y129.898 E1.87324
G1 X125.99 Y129.89 E1.87954
G1 X125.321 Y129.99 E1.91329
G1 X124.732 Y130.259 E1.94559
G1 X124.275 Y130.632 E1.97502
G1 X123.915 Y131.127 E2.00556
G1 X123.696 Y131.656 E2.03412
G1 X123.608 Y132.287 E2.06591
G1 X123.672 Y132.828 E2.09309
G1 X123.878 Y133.389 E2.1229
G1 X124.198 Y133.866 E2.15156
G1 X124.678 Y134.295 E2.18368
G1 X125.316 Y134.595 E2.21885
G0 F3600 X126.939 Y137.873
M73 P5
G1 F1800 X126.294 Y137.935 E2.25118
G1 X125.722 Y137.935 E2.27971
G1 X124.84 Y137.885 E2.32379
G1 X124.268 Y137.814 E2.35254
G1 X123.691 Y137.715 E2.38175
G1 X123.138 Y137.589 E2.41005
G1 X122.56 Y137.431 E2.43994
G1 X122 Y137.245 E2.46938
G1 X121.462 Y137.038 E2.49814
G1 X120.921 Y136.798 E2.52767
G1 X120.401 Y136.536 E2.55672
G1 X119.895 Y136.249 E2.58574
G1 X119.403 Y135.938 E2.61478
G1 X118.921 Y135.598 E2.64421
G1 X118.463 Y135.241 E2.67318
G1 X118.03 Y134.868 E2.70169
G1 X117.588 Y134.447 E2.73214
G1 X117.199 Y134.037 E2.76034
G1 X116.816 Y133.594 E2.78956
G1 X116.447 Y133.12 E2.81953
G1 X116.12 Y132.654 E2.84793
G1 X115.798 Y132.148 E2.87785
G1 X115.513 Y131.643 E2.90678
G1 X115.254 Y131.127 E2.93558
G1 X115.014 Y130.585 E2.96516
G1 X114.811 Y130.056 E2.99343
M73 P6
G1 X114.621 Y129.482 E3.02359
G1 X114.467 Y128.921 E3.05261
G1 X114.34 Y128.359 E3.08136
G1 X114.244 Y127.801 E3.10961
G1 X114.168 Y127.194 E3.14013
G1 X114.128 Y126.632 E3.16824
G1 X114.113 Y126.058 E3.19688
G1 X114.128 Y125.444 E3.22752
G1 X114.171 Y124.872 E3.25614
G1 X114.244 Y124.282 E3.2858
G1 X114.34 Y123.726 E3.31395
G1 X114.467 Y123.165 E3.34265
G1 X114.624 Y122.594 E3.37219
G1 X114.811 Y122.03 E3.40184
G1 X115.017 Y121.493 E3.43053
G1 X115.258 Y120.95 E3.46017
G1 X115.516 Y120.437 E3.48882
G1 X115.798 Y119.937 E3.51746
G1 X116.116 Y119.436 E3.54706
G1 X116.447 Y118.966 E3.57574
G1 X116.824 Y118.482 E3.60635
G1 X117.186 Y118.062 E3.63401
G1 X117.595 Y117.632 E3.66362
G1 X118.032 Y117.216 E3.69372
G1 X118.452 Y116.854 E3.72138
G1 X118.931 Y116.481 E3.75167
G1 X119.406 Y116.145 E3.7807
M73 P7
G1 X119.902 Y115.832 E3.80996
G1 X120.153 Y115.69 E3.82435
G1 X120.401 Y115.55 E3.83856
G1 X120.599 Y115.451 E3.8496
G1 X120.932 Y115.283 E3.86821
G1 X120.994 Y115.255 E3.8716
G1 X120.955 Y115.301
G1 X120.685 Y115.62 E3.87836
G1 X120.624 Y115.707 E3.88029
G1 X120.46 Y115.94 E3.89228
G1 X120.294 Y116.174 E3.9066
G1 X119.988 Y116.711 E3.93743
G1 X119.725 Y117.292 E3.96925
G1 X119.505 Y117.935 E4.00315
G1 X119.355 Y118.584 E4.03639
G1 X119.268 Y119.247 E4.06975
G1 X119.248 Y119.951 E4.10488
G1 X119.296 Y120.616 E4.13815
G1 X119.352 Y121.032 E4.15909
G1 X119.485 Y121.59 E4.18771
G1 X119.661 Y122.148 E4.2169
G1 X119.923 Y122.759 E4.25006
G1 X120.246 Y123.347 E4.28353
G1 X120.622 Y123.894 E4.31665
G1 X121.045 Y124.398 E4.34948
G1 X121.462 Y124.811 E4.37876
M73 P8
G1 X121.98 Y125.237 E4.41222
G1 X122.531 Y125.606 E4.4453
G1 X123.113 Y125.917 E4.47822
G1 X123.726 Y126.17 E4.51131
G1 X124.362 Y126.363 E4.54447
G1 X125.02 Y126.495 E4.57795
G1 X125.677 Y126.56 E4.61089
G1 X126.293 Y126.575 E4.64163
G1 X126.856 Y126.63 E4.66985
G1 X127.402 Y126.739 E4.69763
G1 X127.941 Y126.902 E4.72572
G1 X128.46 Y127.118 E4.75377
G1 X128.957 Y127.384 E4.78189
G1 X129.417 Y127.691 E4.80948
G1 X129.862 Y128.056 E4.8382
G1 X130.242 Y128.442 E4.86522
G1 X130.605 Y128.882 E4.89368
G1 X130.922 Y129.358 E4.92221
G1 X131.177 Y129.832 E4.94906
G1 X131.395 Y130.354 E4.97729
G1 X131.558 Y130.884 E5.00495
G1 X131.668 Y131.44 E5.03323
G1 X131.725 Y131.986 E5.06061
G1 X131.725 Y132.596 E5.09105
G1 X131.668 Y133.146 E5.11863
G1 X131.558 Y133.7 E5.14681
G1 X131.399 Y134.217 E5.1738
M73 P9
G1 X131.178 Y134.752 E5.20268
G1 X130.922 Y135.228 E5.22964
G1 X130.605 Y135.704 E5.25817
G1 X130.242 Y136.144 E5.28663
G1 X129.862 Y136.53 E5.31366
G1 X129.419 Y136.893 E5.34223
G1 X128.957 Y137.202 E5.36996
G1 X128.464 Y137.466 E5.39786
G1 X127.936 Y137.684 E5.42636
G1 X127.402 Y137.846 E5.4542
G1 X126.942 Y137.923 E5.47747
G1 X126.939 Y137.873 E5.47997
G0 F3600 X126.562 Y138.311
;TYPE:WALL-OUTER
G1 F1800 X126.311 Y138.335 E5.49255
G1 X125.717 Y138.335 E5.52218
G1 X124.799 Y138.283 E5.56805
G1 X124.213 Y138.21 E5.59751
G1 X123.613 Y138.107 E5.62789
G1 X123.03 Y137.975 E5.65771
G1 X122.443 Y137.814 E5.68808
G1 X121.874 Y137.625 E5.71799
G1 X121.301 Y137.404 E5.74863
G1 X120.759 Y137.164 E5.7782
G1 X120.211 Y136.888 E5.80881
G1 X119.686 Y136.59 E5.83893
M73 P10
G1 X119.175 Y136.267 E5.86909
G1 X118.69 Y135.925 E5.8987
G1 X118.206 Y135.547 E5.92934
G1 X117.755 Y135.159 E5.95902
G1 X117.312 Y134.737 E5.98954
G1 X116.896 Y134.299 E6.01968
G1 X116.508 Y133.85 E6.04928
G1 X116.131 Y133.366 E6.07989
G1 X115.784 Y132.872 E6.11001
G1 X115.46 Y132.362 E6.14015
G1 X115.165 Y131.84 E6.17007
G1 X114.892 Y131.297 E6.20039
G1 X114.648 Y130.747 E6.23041
G1 X114.431 Y130.182 E6.2606
G1 X114.241 Y129.608 E6.29077
G1 X114.081 Y129.027 E6.32083
G1 X113.948 Y128.437 E6.35101
G1 X113.847 Y127.853 E6.38058
G1 X113.771 Y127.244 E6.4112
G1 X113.728 Y126.651 E6.44086
G1 X113.713 Y126.048 E6.47095
G1 X113.728 Y125.434 E6.50159
G1 X113.772 Y124.842 E6.53121
G1 X113.847 Y124.233 E6.56182
G1 X113.948 Y123.648 E6.59144
G1 X114.081 Y123.059 E6.62156
M73 P11
G1 X114.241 Y122.477 E6.65168
G1 X114.431 Y121.904 E6.6818
G1 X114.651 Y121.331 E6.71242
G1 X114.892 Y120.788 E6.74206
G1 X115.168 Y120.24 E6.77267
G1 X115.46 Y119.723 E6.80229
G1 X115.789 Y119.205 E6.83291
G1 X116.131 Y118.72 E6.86251
G1 X116.508 Y118.236 E6.89312
G1 X116.896 Y117.786 E6.92276
G1 X117.312 Y117.349 E6.95287
G1 X117.756 Y116.926 E6.98346
G1 X118.206 Y116.538 E7.0131
G1 X118.69 Y116.161 E7.04371
G1 X119.175 Y115.818 E7.07335
G1 X119.694 Y115.49 E7.10398
G1 X120.211 Y115.198 E7.1336
G1 X120.759 Y114.922 E7.16421
G1 X121.301 Y114.681 E7.19381
G1 X121.817 Y114.482 E7.2214
G1 X121.874 Y114.46 E7.22445
G1 X122.115 Y114.381 E7.2371
G1 X122.443 Y114.272 E7.25434
G1 X122.698 Y114.202 E7.26754
G1 X123.029 Y114.11 E7.28468
G1 X123.215 Y114.068 E7.29419
G1 X123.053 Y114.154 E7.29467
M73 P12
G1 X122.733 Y114.326 E7.29917
G1 X122.558 Y114.443 E7.30285
G1 X122.213 Y114.674 E7.31684
G1 X122.116 Y114.754 E7.3218
G1 X122.068 Y114.793 E7.32481
G1 X121.734 Y115.067 E7.34636
G1 X121.332 Y115.475 E7.37494
G1 X121.002 Y115.865 E7.40043
G1 X120.632 Y116.389 E7.43243
G1 X120.345 Y116.893 E7.46136
G1 X120.097 Y117.44 E7.49133
G1 X119.89 Y118.045 E7.52323
G1 X119.749 Y118.655 E7.55446
G1 X119.667 Y119.279 E7.58586
G1 X119.648 Y119.942 E7.61895
G1 X119.694 Y120.575 E7.65062
G1 X119.746 Y120.959 E7.66995
G1 X119.871 Y121.484 E7.69688
G1 X120.036 Y122.009 E7.72433
G1 X120.283 Y122.583 E7.75551
G1 X120.587 Y123.137 E7.78703
G1 X120.941 Y123.652 E7.81821
G1 X121.34 Y124.127 E7.84916
G1 X121.73 Y124.514 E7.87657
G1 X122.219 Y124.916 E7.90815
G1 X122.737 Y125.263 E7.93926
M73 P13
G1 X123.284 Y125.555 E7.97019
G1 X123.861 Y125.793 E8.00133
G1 X124.46 Y125.975 E8.03257
G1 X125.079 Y126.099 E8.06406
G1 X125.701 Y126.16 E8.09524
G1 X126.314 Y126.175 E8.12584
G1 X126.913 Y126.234 E8.15586
G1 X127.504 Y126.352 E8.18593
G1 X128.069 Y126.523 E8.21538
G1 X128.64 Y126.76 E8.24623
G1 X129.161 Y127.039 E8.27571
G1 X129.654 Y127.368 E8.30528
G1 X130.134 Y127.762 E8.33626
G1 X130.538 Y128.172 E8.36498
G1 X130.928 Y128.645 E8.39556
G1 X131.264 Y129.15 E8.42583
G1 X131.538 Y129.658 E8.45462
G1 X131.77 Y130.215 E8.48472
G1 X131.946 Y130.788 E8.51463
G1 X132.065 Y131.385 E8.545
G1 X132.125 Y131.964 E8.57404
G1 X132.125 Y132.618 E8.60667
G1 X132.065 Y133.201 E8.63591
G1 X131.946 Y133.796 E8.66618
G1 X131.773 Y134.361 E8.69566
G1 X131.542 Y134.92 E8.72584
G1 X131.264 Y135.436 E8.75508
M73 P14
G1 X130.928 Y135.941 E8.78534
G1 X130.538 Y136.414 E8.81593
G1 X130.134 Y136.824 E8.84464
G1 X129.656 Y137.216 E8.87548
G1 X129.161 Y137.547 E8.90519
G1 X128.636 Y137.828 E8.9349
G1 X128.073 Y138.061 E8.9653
G1 X127.504 Y138.233 E8.99496
G1 X127.104 Y138.313 E9.01531
G1 X126.564 Y138.348 E9.0423
G1 X126.563 Y138.322
G1 X126.562 Y138.311
G0 F3600 X126.363 Y138.33
G0 X126.335 Y138.032
G0 X124.701 Y134.18
G0 X124.901 Y133.958
G1 F1800 X125.433 Y134.208 E9.07163
G1 X126.007 Y134.294 E9.10059
G1 X126.071 Y134.29 E9.10379
G1 X126.593 Y134.208 E9.13015
G1 X127.085 Y133.98 E9.1572
G1 X127.461 Y133.671 E9.18148
G1 X127.777 Y133.236 E9.20831
G1 X127.963 Y132.726 E9.23539
G1 X128.014 Y132.293 E9.25714
G1 X127.942 Y131.764 E9.28378
M73 P15
G1 X127.777 Y131.35 E9.30601
G1 X127.461 Y130.914 E9.33288
G1 X127.079 Y130.602 E9.35748
G1 X126.595 Y130.379 E9.38407
G1 X126.072 Y130.296 E9.41049
G1 X126.007 Y130.292 E9.41374
G1 X125.436 Y130.377 E9.44254
G1 X124.945 Y130.601 E9.46946
G1 X124.568 Y130.909 E9.49375
G1 X124.266 Y131.324 E9.51936
G1 X124.085 Y131.762 E9.543
G1 X124.011 Y132.291 E9.56965
G1 X124.064 Y132.734 E9.59191
G1 X124.237 Y133.206 E9.61699
G1 X124.502 Y133.601 E9.64072
G1 X124.901 Y133.958 E9.66743
G0 F3600 X125.082 Y134.043
G0 X124.46 Y134.624
;TYPE:SKIN
G1 F1800 X125.201 Y134.972 E9.70827
G1 X125.973 Y135.088 E9.74722
G1 X126.158 Y135.076 E9.75647
G1 X126.825 Y134.971 E9.79016
G1 X127.509 Y134.654 E9.82777
G1 X128.041 Y134.217 E9.86212
G1 X128.481 Y133.611 E9.89948
G1 X128.737 Y132.909 E9.93676
M73 P16
G1 X128.811 Y132.285 E9.96811
G1 X128.712 Y131.561 E10.00456
G1 X128.474 Y130.967 E10.03649
G1 X128.04 Y130.368 E10.07339
G1 X127.501 Y129.927 E10.10814
G1 X126.827 Y129.616 E10.14517
G1 X126.159 Y129.51 E10.17891
G1 X125.973 Y129.498 E10.18821
G1 X125.209 Y129.612 E10.22675
G1 X124.524 Y129.925 E10.26432
G1 X123.989 Y130.361 E10.29876
G1 X123.572 Y130.936 E10.33419
G1 X123.316 Y131.553 E10.36752
G1 X123.214 Y132.283 E10.40429
G1 X123.29 Y132.92 E10.4363
G1 X123.529 Y133.567 E10.47071
G1 X123.901 Y134.124 E10.50413
G1 X124.46 Y134.624 E10.54154
G0 F3600 X124.869 Y137.495
G1 F1800 X124.325 Y137.428 E10.56889
G1 X123.767 Y137.333 E10.59713
G1 X123.238 Y137.212 E10.6242
G1 X122.673 Y137.057 E10.65343
G1 X122.132 Y136.878 E10.68186
G1 X121.611 Y136.677 E10.70972
G1 X121.088 Y136.445 E10.73826
M73 P17
G1 X120.576 Y136.187 E10.76687
G1 X120.096 Y135.914 E10.79442
G1 X119.612 Y135.608 E10.82299
G1 X119.16 Y135.289 E10.85059
G1 X118.711 Y134.939 E10.87899
G1 X118.29 Y134.576 E10.90672
G1 X117.857 Y134.164 E10.93654
G1 X117.482 Y133.768 E10.96375
G1 X117.124 Y133.353 E10.99109
G1 X116.755 Y132.88 E11.02102
G1 X116.44 Y132.43 E11.04843
G1 X116.133 Y131.948 E11.07694
G1 X115.858 Y131.46 E11.10488
G1 X115.603 Y130.952 E11.13324
G1 X115.375 Y130.436 E11.16139
G1 X115.175 Y129.916 E11.18918
G1 X114.991 Y129.359 E11.21845
G1 X114.843 Y128.818 E11.24643
G1 X114.72 Y128.273 E11.27431
G1 X114.63 Y127.743 E11.30113
G1 X114.555 Y127.145 E11.33119
G1 X114.518 Y126.614 E11.35775
G1 X114.503 Y126.068 E11.385
G1 X114.518 Y125.454 E11.41564
G1 X114.558 Y124.92 E11.44236
G1 X114.63 Y124.339 E11.47157
G1 X114.72 Y123.812 E11.49824
M73 P18
G1 X114.843 Y123.268 E11.52606
G1 X114.994 Y122.717 E11.55457
G1 X115.175 Y122.17 E11.58331
G1 X115.378 Y121.642 E11.61153
G1 X115.607 Y121.125 E11.63974
G1 X115.861 Y120.62 E11.66795
