;FLAVOR:Marlin
;TIME:169
;Filament used: 0m, 0.109156m, 0.110361m, 0m
;Layer height: 0.3
;MINX:113.844
;MINY:95.622
;MINZ:0.3
;MAXX:149.226
;MAXY:131.054
;MAXZ:1.9
;POSTPROCESSED
;Generated with Cura_SteamEngine 4.8.0
T1
M82 ;absolute extrusion mode
;Start Script
	G28 R5 ; Autohome if unknown
	M140 S65.0 ; start preheating the bed
	;G29 ; Bed leveling

	G90 ; Absolute Positioning
	M82 ; E Absolute
	G92 E0 ; Set Position
	G1 Z15 F3000 ; Lift up
	G0 X1 Y10 F3000 ; Get Nozzle out the way from centre
	M107 ; Fan Off
	M412 S1 ; Enable Runout Sensor

	M104 S215 ; start preheating hotend
	M190 S65.0 ; wait for Cura Bed setting
	M109 S215 ; wait for Cura Hotend
;/Start Script	
G92 E0
;Change Tool
	;Only for Extruder 4+ ()
	;M165 A0.5 B0.5 C0 ;  M163 and M163 alternative throws errors as ;Removed: T[3-7] not available.
	
	M117 Changing Tool
	G1 E30 F150 ; Extrude into Bucket
	G92 E0 ; Set current extruder position to 0
	G1 F2700 E-7 ; Retract to try and slow oooze.

	G4 S5 ; Pause 1 second
		G0 X10 F500 ; Wipe
		G0 X-2 F500 ; Wipe
		G0 X10 F6000 ; Wipe
		G0 X-2 F6000 ; Wipe
		G0 X10 F6000 ; Wipe
		G0 X-2 F6000 ; Wipe
		G0 X10 F6000 ; Wipe
		G0 X-2 F6000 ; Wipe
	G1 E0 F2700 ; Recover as Cura may apply it's own retract and G92 E0 and there is no filament ready.
	G92 E0 ; Set current extruder position to 0
	M211 S1 ; Enable SoftStops
;/Change Tool
G92 E0
G1 F2400 E-5
;LAYER_COUNT:3
;LAYER:0
M107
;Removed any temp changes directed at Ts: M104 T[0-7]+ S215
G0 F3600 X119.037 Y102.581 Z0.3
;TYPE:SKIRT
G1 F2400 E0
G1 F1800 X119.414 Y102.157 E0.02831
G1 X119.545 Y102.017 E0.03787
G1 X119.966 Y101.587 E0.06789
G1 X120.106 Y101.451 E0.07763
G1 X120.554 Y101.036 E0.1081
G1 X120.706 Y100.902 E0.11821
G1 X121.195 Y100.493 E0.15001
G1 X121.344 Y100.374 E0.15953
G1 X121.816 Y100.016 E0.18908
G1 X121.982 Y99.897 E0.19927
G1 X122.499 Y99.545 E0.23048
G1 X122.662 Y99.439 E0.24018
G1 X123.193 Y99.114 E0.27124
G1 X123.349 Y99.024 E0.28022
G1 X123.851 Y98.747 E0.30883
G1 X124.04 Y98.649 E0.31945
G1 X124.61 Y98.373 E0.35104
G1 X124.785 Y98.293 E0.36064
G1 X125.353 Y98.051 E0.39145
G1 X125.528 Y97.981 E0.40085
G1 X126.069 Y97.78 E0.42964
G1 X126.261 Y97.715 E0.43976
G1 X126.874 Y97.522 E0.47182
G1 X127.058 Y97.468 E0.48138
G1 X127.64 Y97.315 E0.51141
G1 X127.822 Y97.272 E0.52074
G1 X128.426 Y97.143 E0.55155
G1 X128.644 Y97.103 E0.56261
G1 X129.541 Y96.963 E0.6079
G1 X129.784 Y96.933 E0.62012
G1 X130.79 Y96.84 E0.67052
G1 X131.467 Y96.82 E0.70431
G1 X132.138 Y96.852 E0.73783
G1 X132.686 Y96.889 E0.76523
G1 X133.286 Y96.942 E0.79528
G1 X133.479 Y96.963 E0.80496
G1 X134.075 Y97.045 E0.83498
G1 X134.259 Y97.075 E0.84428
G1 X134.879 Y97.19 E0.87574
G1 X135.098 Y97.237 E0.88691
G1 X135.705 Y97.385 E0.91808
G1 X135.878 Y97.431 E0.92702
G1 X136.464 Y97.602 E0.95747
G1 X136.656 Y97.664 E0.96754
G1 X137.217 Y97.859 E0.99717
G1 X137.394 Y97.925 E1.00659
G1 X137.982 Y98.161 E1.0382
G1 X138.162 Y98.238 E1.04797
G1 X138.717 Y98.493 E1.07844
G1 X138.9 Y98.583 E1.08862
G1 X139.426 Y98.858 E1.11823
G1 X139.601 Y98.955 E1.12821
G1 X140.15 Y99.278 E1.15999
G1 X140.307 Y99.376 E1.16922
G1 X140.819 Y99.71 E1.19972
G1 X140.984 Y99.823 E1.2097
G1 X141.462 Y100.17 E1.23917
G1 X141.615 Y100.287 E1.24878
G1 X142.1 Y100.676 E1.27979
G1 X142.261 Y100.813 E1.29034
G1 X142.766 Y101.264 E1.32412
G1 X142.908 Y101.397 E1.33383
G1 X143.294 Y101.777 E1.36085
G1 X143.418 Y101.904 E1.36971
G1 X143.826 Y102.343 E1.39961
G1 X143.962 Y102.497 E1.40986
G1 X144.38 Y102.996 E1.44233
G1 X144.505 Y103.153 E1.45234
G1 X144.873 Y103.64 E1.4828
G1 X144.985 Y103.796 E1.49238
G1 X145.323 Y104.291 E1.52228
G1 X145.425 Y104.448 E1.53162
G1 X145.711 Y104.912 E1.55882
G1 X145.873 Y105.193 E1.575
G1 X146.142 Y105.684 E1.60293
G1 X146.231 Y105.856 E1.61259
G1 X146.499 Y106.407 E1.64316
G1 X146.584 Y106.595 E1.65345
G1 X146.839 Y107.196 E1.68602
G1 X146.91 Y107.375 E1.69563
G1 X147.109 Y107.915 E1.72434
G1 X147.172 Y108.099 E1.73405
G1 X147.365 Y108.713 E1.76616
G1 X147.423 Y108.914 E1.77659
G1 X147.567 Y109.473 E1.80539
G1 X147.605 Y109.636 E1.81374
G1 X147.732 Y110.231 E1.8441
G1 X147.77 Y110.435 E1.85445
G1 X147.865 Y111.03 E1.88451
G1 X147.891 Y111.226 E1.89437
G1 X147.961 Y111.866 E1.92649
G1 X147.978 Y112.062 E1.93631
G1 X148.013 Y112.647 E1.96555
G1 X148.02 Y112.848 E1.97558
G1 X148.026 Y113.48 E2.00711
G1 X148.023 Y113.668 E2.01649
G1 X148 Y114.279 E2.047
G1 X147.988 Y114.477 E2.05689
G1 X147.934 Y115.095 E2.08784
G1 X147.911 Y115.294 E2.09784
G1 X147.831 Y115.873 E2.127
G1 X147.801 Y116.058 E2.13635
G1 X147.686 Y116.676 E2.16771
G1 X147.642 Y116.884 E2.17832
G1 X147.489 Y117.517 E2.21081
G1 X147.438 Y117.706 E2.22057
G1 X147.268 Y118.284 E2.25063
G1 X147.209 Y118.47 E2.26037
G1 X147.005 Y119.056 E2.29132
G1 X146.941 Y119.225 E2.30034
G1 X146.752 Y119.698 E2.32575
G1 X146.677 Y119.875 E2.33534
G1 X146.384 Y120.517 E2.37055
G1 X146.291 Y120.706 E2.38106
G1 X146.014 Y121.237 E2.41094
G1 X145.92 Y121.408 E2.42067
G1 X145.582 Y121.984 E2.45399
G1 X145.488 Y122.132 E2.46274
G1 X145.171 Y122.617 E2.49165
G1 X145.059 Y122.781 E2.50155
G1 X144.7 Y123.275 E2.53202
G1 X144.584 Y123.427 E2.54156
G1 X144.202 Y123.903 E2.57201
G1 X144.076 Y124.052 E2.58174
G1 X143.663 Y124.518 E2.61281
G1 X143.52 Y124.67 E2.62322
G1 X143.094 Y125.103 E2.65353
G1 X142.965 Y125.229 E2.66252
G1 X142.516 Y125.646 E2.69309
G1 X142.362 Y125.782 E2.70334
G1 X141.901 Y126.168 E2.73334
G1 X141.744 Y126.293 E2.74335
G1 X141.233 Y126.679 E2.7753
G1 X141.076 Y126.792 E2.78495
G1 X140.557 Y127.146 E2.8163
G1 X140.389 Y127.254 E2.82626
G1 X139.877 Y127.567 E2.8562
G1 X139.714 Y127.661 E2.86559
G1 X139.198 Y127.944 E2.89495
G1 X139.017 Y128.038 E2.90512
G1 X138.461 Y128.307 E2.93594
G1 X138.298 Y128.381 E2.94487
G1 X137.737 Y128.622 E2.97533
G1 X137.54 Y128.701 E2.98592
G1 X136.945 Y128.92 E3.01755
G1 X136.768 Y128.98 E3.02688
G1 X136.214 Y129.155 E3.05586
G1 X136.019 Y129.211 E3.06598
G1 X135.398 Y129.373 E3.098
G1 X135.21 Y129.418 E3.10765
G1 X134.605 Y129.545 E3.13849
G1 X134.027 Y129.65 E3.1678
G1 X133.473 Y129.738 E3.19578
G1 X133.22 Y129.77 E3.2085
G1 X132.509 Y129.837 E3.24413
G1 X131.72 Y129.848 E3.2835
G1 X130.591 Y129.805 E3.33987
G1 X130.391 Y129.792 E3.34987
G1 X129.754 Y129.735 E3.38177
G1 X129.569 Y129.714 E3.39106
G1 X128.999 Y129.636 E3.41977
G1 X128.812 Y129.606 E3.42921
G1 X128.192 Y129.491 E3.46067
G1 X127.988 Y129.448 E3.47107
G1 X127.413 Y129.31 E3.50058
G1 X127.221 Y129.259 E3.51049
G1 X126.61 Y129.08 E3.54225
G1 X126.425 Y129.02 E3.55195
G1 X125.819 Y128.81 E3.58395
G1 X125.631 Y128.74 E3.59396
G1 X125.111 Y128.53 E3.62194
G1 X124.932 Y128.452 E3.63168
G1 X124.343 Y128.18 E3.66405
G1 X124.173 Y128.097 E3.67349
G1 X123.641 Y127.82 E3.70341
G1 X123.47 Y127.725 E3.71317
G1 X122.943 Y127.417 E3.74362
G1 X122.78 Y127.317 E3.75316
G1 X122.291 Y126.999 E3.78226
G1 X122.119 Y126.881 E3.79267
G1 X121.602 Y126.505 E3.82456
G1 X121.455 Y126.393 E3.83378
G1 X120.944 Y125.982 E3.8665
G1 X120.788 Y125.849 E3.87673
G1 X120.345 Y125.455 E3.90631
G1 X120.205 Y125.325 E3.91584
G1 X119.785 Y124.914 E3.94515
G1 X119.651 Y124.776 E3.95475
G1 X119.227 Y124.319 E3.98585
G1 X119.09 Y124.163 E3.99621
G1 X118.693 Y123.688 E4.0271
G1 X118.572 Y123.536 E4.03679
G1 X118.193 Y123.035 E4.06813
G1 X118.079 Y122.876 E4.07789
G1 X117.744 Y122.385 E4.10755
G1 X117.64 Y122.226 E4.11702
G1 X117.356 Y121.764 E4.14408
G1 X117.196 Y121.488 E4.16
G1 X116.928 Y120.999 E4.18782
G1 X116.835 Y120.819 E4.19792
G1 X116.567 Y120.265 E4.22863
G1 X116.488 Y120.09 E4.23821
G1 X116.25 Y119.531 E4.26852
G1 X116.179 Y119.353 E4.27808
G1 X115.958 Y118.756 E4.30984
G1 X115.893 Y118.567 E4.31981
G1 X115.72 Y118.017 E4.34857
G1 X115.635 Y117.718 E4.36408
G1 X115.504 Y117.213 E4.39011
G1 X115.462 Y117.034 E4.39928
G1 X115.337 Y116.441 E4.42952
G1 X115.301 Y116.243 E4.43956
G1 X115.2 Y115.607 E4.47169
G1 X115.173 Y115.412 E4.48151
G1 X115.107 Y114.804 E4.51202
G1 X115.091 Y114.604 E4.52203
G1 X115.057 Y114.018 E4.55131
G1 X115.05 Y113.824 E4.561
G1 X115.044 Y113.199 E4.59218
G1 X115.047 Y113.011 E4.60156
G1 X115.07 Y112.397 E4.63222
G1 X115.083 Y112.187 E4.64271
G1 X115.14 Y111.556 E4.67432
G1 X115.161 Y111.376 E4.68336
G1 X115.236 Y110.826 E4.71106
G1 X115.266 Y110.635 E4.7207
G1 X115.382 Y110.011 E4.75237
G1 X115.427 Y109.803 E4.76299
G1 X115.581 Y109.165 E4.79573
G1 X115.628 Y108.988 E4.80487
G1 X115.806 Y108.381 E4.83642
G1 X115.859 Y108.218 E4.84498
G1 X116.057 Y107.646 E4.87517
G1 X116.128 Y107.457 E4.88525
G1 X116.352 Y106.902 E4.91511
G1 X116.425 Y106.731 E4.92438
G1 X116.687 Y106.16 E4.95573
G1 X116.778 Y105.976 E4.96597
G1 X117.057 Y105.442 E4.99603
G1 X117.155 Y105.265 E5.00612
G1 X117.487 Y104.701 E5.03877
G1 X117.588 Y104.539 E5.04829
G1 X117.901 Y104.061 E5.0768
G1 X118.012 Y103.899 E5.0866
G1 X118.367 Y103.411 E5.1167
G1 X118.478 Y103.266 E5.12581
G1 X118.833 Y102.822 E5.15418
G1 X119.037 Y102.581 E5.16993
G0 F3600 X119.336 Y102.847
G1 F1800 X119.713 Y102.423 E5.19823
G1 X119.831 Y102.296 E5.20688
G1 X120.252 Y101.866 E5.23691
G1 X120.378 Y101.744 E5.24566
G1 X120.826 Y101.329 E5.27612
G1 X120.962 Y101.209 E5.28517
G1 X121.451 Y100.8 E5.31698
G1 X121.585 Y100.693 E5.32553
G1 X122.057 Y100.335 E5.35509
G1 X122.207 Y100.227 E5.36431
G1 X122.724 Y99.875 E5.39551
G1 X122.871 Y99.78 E5.40424
G1 X123.402 Y99.455 E5.4353
G1 X123.542 Y99.374 E5.44337
G1 X124.044 Y99.097 E5.47198
G1 X124.214 Y99.009 E5.48153
G1 X124.784 Y98.733 E5.51312
G1 X124.942 Y98.661 E5.52179
G1 X125.51 Y98.419 E5.55259
G1 X125.667 Y98.356 E5.56103
G1 X126.208 Y98.155 E5.58982
G1 X126.381 Y98.096 E5.59894
G1 X126.994 Y97.903 E5.631
G1 X127.16 Y97.855 E5.63963
G1 X127.742 Y97.702 E5.66965
G1 X127.905 Y97.663 E5.67801
G1 X128.509 Y97.534 E5.70882
G1 X128.706 Y97.498 E5.71881
G1 X129.603 Y97.358 E5.76411
G1 X129.822 Y97.331 E5.77512
G1 X130.817 Y97.239 E5.82497
G1 X131.449 Y97.22 E5.85651
G1 X132.112 Y97.251 E5.88963
G1 X132.651 Y97.287 E5.91658
G1 X133.251 Y97.34 E5.94663
G1 X133.425 Y97.36 E5.95537
G1 X134.021 Y97.442 E5.98538
G1 X134.187 Y97.468 E5.99376
G1 X134.807 Y97.583 E6.02522
G1 X135.003 Y97.625 E6.03522
G1 X135.61 Y97.773 E6.06639
G1 X135.765 Y97.815 E6.07441
G1 X136.351 Y97.986 E6.10486
G1 X136.525 Y98.042 E6.11398
G1 X137.086 Y98.237 E6.14361
G1 X137.245 Y98.296 E6.15207
G1 X137.833 Y98.532 E6.18368
G1 X137.995 Y98.602 E6.19249
G1 X138.55 Y98.857 E6.22296
G1 X138.715 Y98.938 E6.23213
G1 X139.241 Y99.213 E6.26174
G1 X139.399 Y99.3 E6.27074
G1 X139.948 Y99.623 E6.30252
G1 X140.089 Y99.711 E6.31081
G1 X140.601 Y100.045 E6.34131
G1 X140.749 Y100.147 E6.35028
G1 X141.227 Y100.494 E6.37975
G1 X141.364 Y100.599 E6.38836
G1 X141.849 Y100.988 E6.41938
G1 X141.995 Y101.111 E6.4289
G1 X142.5 Y101.562 E6.46268
G1 X142.628 Y101.682 E6.47143
G1 X143.014 Y102.062 E6.49846
G1 X143.125 Y102.176 E6.50639
G1 X143.533 Y102.615 E6.53629
G1 X143.656 Y102.754 E6.54555
G1 X144.074 Y103.253 E6.57803
G1 X144.186 Y103.395 E6.58705
G1 X144.554 Y103.882 E6.61751
G1 X144.655 Y104.022 E6.62612
G1 X144.993 Y104.517 E6.65602
G1 X145.085 Y104.658 E6.66442
G1 X145.371 Y105.122 E6.69161
G1 X145.522 Y105.385 E6.70674
G1 X145.791 Y105.876 E6.73468
G1 X145.871 Y106.031 E6.74338
G1 X146.139 Y106.582 E6.77395
G1 X146.216 Y106.751 E6.78321
G1 X146.471 Y107.352 E6.81578
G1 X146.535 Y107.513 E6.82443
G1 X146.734 Y108.053 E6.85314
G1 X146.79 Y108.218 E6.86183
G1 X146.983 Y108.832 E6.89394
G1 X147.035 Y109.014 E6.90339
G1 X147.179 Y109.573 E6.93219
G1 X147.214 Y109.72 E6.93972
G1 X147.341 Y110.315 E6.97008
G1 X147.375 Y110.498 E6.97936
G1 X147.47 Y111.093 E7.00942
G1 X147.494 Y111.27 E7.01834
G1 X147.564 Y111.91 E7.05046
G1 X147.579 Y112.086 E7.05927
G1 X147.614 Y112.671 E7.08851
G1 X147.62 Y112.852 E7.09754
G1 X147.626 Y113.484 E7.12907
G1 X147.623 Y113.653 E7.13751
G1 X147.6 Y114.264 E7.16801
G1 X147.589 Y114.442 E7.17691
G1 X147.535 Y115.06 E7.20786
G1 X147.515 Y115.24 E7.21689
G1 X147.435 Y115.819 E7.24605
G1 X147.408 Y115.985 E7.25444
G1 X147.293 Y116.603 E7.28581
G1 X147.253 Y116.79 E7.29535
G1 X147.1 Y117.423 E7.32784
G1 X147.055 Y117.593 E7.33661
G1 X146.885 Y118.171 E7.36667
G1 X146.831 Y118.339 E7.37547
G1 X146.627 Y118.925 E7.40643
G1 X146.57 Y119.077 E7.41453
G1 X146.381 Y119.55 E7.43994
G1 X146.313 Y119.709 E7.44857
G1 X146.02 Y120.351 E7.48377
G1 X145.937 Y120.521 E7.49321
G1 X145.66 Y121.052 E7.52309
G1 X145.575 Y121.206 E7.53187
G1 X145.241 Y121.774 E7.56474
G1 X145.153 Y121.914 E7.57299
G1 X144.836 Y122.399 E7.6019
G1 X144.735 Y122.545 E7.61076
G1 X144.376 Y123.039 E7.64122
G1 X144.272 Y123.176 E7.6498
G1 X143.89 Y123.652 E7.68025
G1 X143.776 Y123.787 E7.68907
G1 X143.363 Y124.253 E7.72013
G1 X143.235 Y124.39 E7.72949
G1 X142.809 Y124.823 E7.75979
G1 X142.693 Y124.936 E7.76787
G1 X142.244 Y125.353 E7.79844
G1 X142.105 Y125.475 E7.80767
G1 X141.644 Y125.861 E7.83767
G1 X141.503 Y125.974 E7.84668
G1 X140.992 Y126.36 E7.87863
G1 X140.851 Y126.461 E7.88728
G1 X140.332 Y126.815 E7.91863
G1 X140.181 Y126.913 E7.92761
G1 X139.669 Y127.226 E7.95755
G1 X139.522 Y127.31 E7.96599
G1 X139.006 Y127.593 E7.99535
G1 X138.843 Y127.678 E8.00453
G1 X138.287 Y127.947 E8.03534
G1 X138.14 Y128.014 E8.0434
G1 X137.579 Y128.255 E8.07386
G1 X137.401 Y128.325 E8.0834
G1 X136.806 Y128.544 E8.11504
G1 X136.647 Y128.599 E8.12343
G1 X136.093 Y128.774 E8.15242
G1 X135.918 Y128.824 E8.1615
G1 X135.297 Y128.986 E8.19351
G1 X135.128 Y129.026 E8.20218
G1 X134.429 Y129.172 E8.2378
G1 X133.964 Y129.255 E8.26137
G1 X133.41 Y129.343 E8.28936
G1 X133.183 Y129.372 E8.30077
G1 X132.472 Y129.439 E8.3364
G1 X131.727 Y129.448 E8.37357
G1 X130.606 Y129.405 E8.42954
G1 X130.427 Y129.394 E8.43849
G1 X129.79 Y129.337 E8.47039
G1 X129.623 Y129.318 E8.47878
G1 X129.053 Y129.24 E8.50748
G1 X128.884 Y129.213 E8.51602
G1 X128.264 Y129.098 E8.54748
G1 X128.081 Y129.059 E8.55682
G1 X127.506 Y128.921 E8.58632
G1 X127.334 Y128.875 E8.5952
G1 X126.723 Y128.696 E8.62696
G1 X126.556 Y128.643 E8.63571
G1 X125.95 Y128.433 E8.6677
G1 X125.781 Y128.369 E8.67672
G1 X125.261 Y128.159 E8.7047
G1 X125.1 Y128.089 E8.71346
G1 X124.511 Y127.817 E8.74582
G1 X124.357 Y127.742 E8.75437
G1 X123.825 Y127.465 E8.78429
G1 X123.671 Y127.38 E8.79307
G1 X123.144 Y127.072 E8.82352
G1 X122.998 Y126.982 E8.83208
G1 X122.509 Y126.664 E8.86118
G1 X122.355 Y126.557 E8.87053
G1 X121.838 Y126.181 E8.90243
G1 X121.705 Y126.081 E8.91073
G1 X121.201 Y125.676 E8.94299
G1 X121.054 Y125.55 E8.95265
G1 X120.611 Y125.156 E8.98222
G1 X120.485 Y125.039 E8.9908
G1 X120.065 Y124.628 E9.02012
G1 X119.944 Y124.504 E9.02876
G1 X119.52 Y124.047 E9.05987
G1 X119.397 Y123.907 E9.06916
G1 X119 Y123.432 E9.10005
G1 X118.891 Y123.295 E9.10878
G1 X118.512 Y122.794 E9.14012
G1 X118.409 Y122.651 E9.14892
G1 X118.074 Y122.16 E9.17857
G1 X117.981 Y122.016 E9.18712
G1 X117.653 Y121.481 E9.21843
G1 X117.547 Y121.296 E9.22907
G1 X117.279 Y120.807 E9.25689
G1 X117.195 Y120.645 E9.26599
G1 X116.927 Y120.091 E9.2967
G1 X116.856 Y119.933 E9.30534
G1 X116.618 Y119.374 E9.33565
G1 X116.554 Y119.214 E9.34425
G1 X116.333 Y118.617 E9.37601
G1 X116.275 Y118.447 E9.38497
G1 X116.071 Y117.793 E9.41915
G1 X116.022 Y117.618 E9.42821
G1 X115.891 Y117.113 E9.45424
G1 X115.853 Y116.952 E9.46249
G1 X115.728 Y116.359 E9.49273
G1 X115.696 Y116.181 E9.50175
G1 X115.595 Y115.545 E9.53388
G1 X115.571 Y115.369 E9.54274
G1 X115.505 Y114.761 E9.57325
G1 X115.49 Y114.581 E9.58226
G1 X115.456 Y113.995 E9.61155
G1 X115.45 Y113.821 E9.62023
G1 X115.444 Y113.196 E9.65142
G1 X115.447 Y113.026 E9.6599
G1 X115.47 Y112.412 E9.69055
G1 X115.482 Y112.223 E9.7
G1 X115.539 Y111.592 E9.73161
G1 X115.557 Y111.43 E9.73974
G1 X115.632 Y110.88 E9.76744
G1 X115.66 Y110.708 E9.77613
G1 X115.776 Y110.084 E9.8078
G1 X115.816 Y109.897 E9.81734
G1 X115.97 Y109.259 E9.85008
G1 X116.012 Y109.1 E9.85829
G1 X116.187 Y108.503 E9.88932
G1 X116.237 Y108.348 E9.89745
G1 X116.435 Y107.776 E9.92765
G1 X116.499 Y107.607 E9.93666
G1 X116.723 Y107.052 E9.96652
G1 X116.789 Y106.898 E9.97488
G1 X117.051 Y106.327 E10.00622
G1 X117.132 Y106.161 E10.01544
G1 X117.411 Y105.627 E10.0455
G1 X117.5 Y105.468 E10.05459
G1 X117.832 Y104.904 E10.08724
G1 X117.922 Y104.758 E10.0958
