;FLAVOR:Marlin
M73 P0
M117 Time Left 0h11m17s
;TIME:677
;Filament used: 0m, 0.210718m, 0m, 0m, 0m, 0m, 0m, 0m
;Layer height: 0.3
;MINX:90.9
;MINY:90.85
;MINZ:0.3
;MAXX:159.2
;MAXY:159.15
;MAXZ:0.3
;POSTPROCESSED
;Generated with Cura_SteamEngine 4.8.0
T1
M82 ;absolute extrusion mode
G28
G29

G90 ; Absolute Positioning
M82 ; E Absolute
G92 E0 ; Set Position
G0 X1 Y10 F6000 ; Get Nozzle out the way from centre
G1 Z15 F300 ; Linear Move
M107 ; Fan Off
M412 S1 ; Enable Runout Sensor

M140 S55 ; start preheating the bed
M104 S205 ; start preheating hotend
M190 S55 ; wait for Cura Bed setting
M109 S205 ; wait for Cura Hotend

G0 X10 Y20 F6000 ; Get into position of Prep Line
G1 Z0.8 ; Drop Nozzle to starting point
G1 F300 X200 E40 ; Prep Line
G1 F1200 Z4 ; Lift Nozzle
G92 E0 ; Set Position
G28 X; Autohome
G92 E0
G92 E0
G1 F2400 E-7
;LAYER_COUNT:1
;LAYER:0
M107
G0 F3600 X100.949 Y100.805 Z0.3
;TYPE:SKIRT
G1 F2400 E0
G1 F1200 X101.54 Y100.229 E0.04117
G1 X101.951 Y99.885 E0.06791
G1 X102.466 Y99.577 E0.09785
G1 X103.367 Y99.136 E0.1479
G1 X103.476 Y99.085 E0.1539
G1 X104.171 Y98.773 E0.19191
G1 X104.552 Y98.627 E0.21226
G1 X105.33 Y98.379 E0.253
G1 X107.915 Y97.512 E0.38903
G1 X110.47 Y96.576 E0.52478
G1 X113.003 Y95.565 E0.66085
G1 X115.5 Y94.485 E0.79658
G1 X117.972 Y93.333 E0.93264
G1 X120.586 Y92.01 E1.07881
G1 X121.172 Y91.738 E1.11104
G1 X122.14 Y91.363 E1.16283
G1 X122.248 Y91.323 E1.16857
G1 X122.963 Y91.072 E1.20638
G1 X123.48 Y90.933 E1.23309
G1 X124.085 Y90.87 E1.26344
G1 X125.176 Y90.85 E1.31787
G1 X125.938 Y90.86 E1.35589
G1 X126.472 Y90.907 E1.38264
G1 X127.056 Y91.054 E1.41268
G1 X128.089 Y91.409 E1.46718
G1 X128.825 Y91.689 E1.50647
G1 X129.195 Y91.854 E1.52668
G1 X129.833 Y92.183 E1.56249
G1 X132.27 Y93.401 E1.69841
G1 X134.741 Y94.548 E1.83432
G1 X137.257 Y95.632 E1.971
G1 X139.807 Y96.644 E2.10788
G1 X142.354 Y97.574 E2.24315
G1 X145.219 Y98.514 E2.39358
G1 X145.835 Y98.739 E2.4263
G1 X146.845 Y99.188 E2.48145
G1 X147.57 Y99.536 E2.52157
G1 X148.035 Y99.804 E2.54834
G1 X148.506 Y100.187 E2.57863
G1 X149.193 Y100.849 E2.62623
M73 P1
G1 X149.815 Y101.484 E2.67057
G1 X150.161 Y101.894 E2.69734
G1 X150.473 Y102.416 E2.72768
G1 X150.965 Y103.424 E2.78364
G1 X151.276 Y104.116 E2.82149
G1 X151.422 Y104.498 E2.84189
G1 X151.671 Y105.279 E2.88279
G1 X152.538 Y107.865 E3.01886
G1 X153.474 Y110.42 E3.15462
G1 X154.485 Y112.953 E3.29068
G1 X155.565 Y115.45 E3.42641
G1 X156.717 Y117.922 E3.56247
G1 X158.04 Y120.536 E3.70864
G1 X158.312 Y121.122 E3.74087
G1 X158.708 Y122.145 E3.7956
G1 X158.767 Y122.308 E3.80425
G1 X158.98 Y122.918 E3.83648
G1 X159.118 Y123.436 E3.86323
G1 X159.18 Y124.035 E3.89327
G1 X159.2 Y125.126 E3.94771
G1 X159.19 Y125.888 E3.98573
G1 X159.143 Y126.422 E4.01247
G1 X158.996 Y127.006 E4.04252
G1 X158.682 Y127.924 E4.09092
G1 X158.641 Y128.038 E4.09697
G1 X158.362 Y128.772 E4.13614
G1 X158.197 Y129.143 E4.1564
G1 X157.867 Y129.783 E4.19232
G1 X156.649 Y132.22 E4.32825
G1 X155.502 Y134.691 E4.46416
G1 X154.418 Y137.207 E4.60084
G1 X153.406 Y139.757 E4.73771
G1 X152.476 Y142.304 E4.87299
G1 X151.536 Y145.169 E5.02342
G1 X151.311 Y145.785 E5.05614
G1 X150.862 Y146.795 E5.11128
G1 X150.514 Y147.52 E5.1514
G1 X150.246 Y147.985 E5.17818
G1 X149.863 Y148.456 E5.20847
G1 X149.151 Y149.195 E5.25966
G1 X148.56 Y149.771 E5.30083
G1 X148.149 Y150.115 E5.32757
G1 X147.634 Y150.423 E5.35751
G1 X146.733 Y150.864 E5.40756
M73 P2
G1 X146.624 Y150.915 E5.41356
G1 X145.929 Y151.227 E5.45157
G1 X145.548 Y151.373 E5.47193
G1 X144.77 Y151.621 E5.51266
G1 X142.185 Y152.488 E5.64869
G1 X139.63 Y153.424 E5.78444
G1 X137.097 Y154.435 E5.92051
G1 X134.6 Y155.515 E6.05624
G1 X132.128 Y156.667 E6.1923
G1 X129.514 Y157.99 E6.33847
G1 X128.928 Y158.262 E6.3707
G1 X127.905 Y158.658 E6.42543
G1 X127.742 Y158.717 E6.43408
G1 X127.132 Y158.93 E6.46631
G1 X126.614 Y159.068 E6.49306
G1 X126.015 Y159.13 E6.5231
G1 X124.924 Y159.15 E6.57754
G1 X124.162 Y159.14 E6.61556
G1 X123.628 Y159.093 E6.6423
G1 X123.044 Y158.946 E6.67235
G1 X122.011 Y158.591 E6.72684
G1 X121.275 Y158.311 E6.76613
G1 X120.905 Y158.146 E6.78634
G1 X120.267 Y157.817 E6.82215
G1 X117.83 Y156.599 E6.95808
G1 X115.359 Y155.452 E7.09399
G1 X112.843 Y154.368 E7.23067
G1 X110.285 Y153.353 E7.36796
G1 X107.755 Y152.43 E7.50232
G1 X104.866 Y151.48 E7.65405
G1 X104.263 Y151.26 E7.68607
G1 X103.236 Y150.803 E7.74215
G1 X102.529 Y150.464 E7.78127
G1 X102.065 Y150.196 E7.80801
G1 X101.592 Y149.811 E7.83843
G1 X100.92 Y149.161 E7.88508
G1 X100.273 Y148.502 E7.93115
G1 X99.927 Y148.092 E7.95792
G1 X99.659 Y147.661 E7.98324
G1 X99.55 Y147.449 E7.99513
G1 X99.304 Y146.938 E8.02342
G1 X99.136 Y146.576 E8.04333
G1 X98.824 Y145.882 E8.0813
G1 X98.677 Y145.498 E8.10181
M73 P3
G1 X98.429 Y144.719 E8.1426
G1 X97.562 Y142.135 E8.27858
G1 X96.626 Y139.579 E8.41438
G1 X95.615 Y137.047 E8.5504
G1 X94.535 Y134.55 E8.68612
G1 X93.383 Y132.078 E8.82219
G1 X92.06 Y129.464 E8.96835
G1 X91.788 Y128.878 E9.00058
G1 X91.392 Y127.855 E9.05531
G1 X91.333 Y127.692 E9.06396
G1 X91.12 Y127.082 E9.0962
G1 X90.982 Y126.564 E9.12294
G1 X90.92 Y125.965 E9.15298
G1 X90.9 Y124.874 E9.20742
G1 X90.91 Y124.112 E9.24544
G1 X90.957 Y123.578 E9.27219
G1 X91.104 Y122.994 E9.30223
G1 X91.418 Y122.076 E9.35064
G1 X91.457 Y121.967 E9.35641
G1 X91.734 Y121.235 E9.39546
G1 X91.903 Y120.855 E9.41621
G1 X92.235 Y120.213 E9.45227
G1 X93.444 Y117.795 E9.58714
G1 X94.605 Y115.292 E9.72479
G1 X95.677 Y112.803 E9.86
G1 X96.684 Y110.268 E9.99608
G1 X97.624 Y107.695 E10.13275
G1 X98.563 Y104.835 E10.28293
G1 X98.789 Y104.215 E10.31585
G1 X99.238 Y103.205 E10.371
G1 X99.586 Y102.48 E10.41112
G1 X99.854 Y102.015 E10.43789
G1 X100.237 Y101.544 E10.46818
G1 X100.949 Y100.805 E10.51938
G0 F3600 X101.232 Y101.088
G1 F1200 X101.351 Y100.97 E10.52774
G1 X101.818 Y100.516 E10.56023
G1 X102.208 Y100.193 E10.5855
G1 X102.642 Y99.936 E10.61066
G1 X103.543 Y99.495 E10.66071
G1 X103.639 Y99.45 E10.666
G1 X104.334 Y99.138 E10.704
G1 X104.673 Y99.008 E10.72212
G1 X105.451 Y98.76 E10.76286
M73 P4
G1 X108.031 Y97.895 E10.89861
G1 X110.619 Y96.947 E11.03612
G1 X113.174 Y95.927 E11.17337
G1 X115.679 Y94.844 E11.30953
G1 X118.143 Y93.695 E11.44516
G1 X120.762 Y92.37 E11.5916
G1 X121.316 Y92.111 E11.62211
G1 X122.284 Y91.736 E11.6739
G1 X123.095 Y91.45 E11.7168
G1 X123.584 Y91.32 E11.74204
G1 X124.093 Y91.27 E11.76756
G1 X125.171 Y91.25 E11.82135
G1 X125.933 Y91.26 E11.85937
G1 X126.436 Y91.307 E11.88458
G1 X126.927 Y91.432 E11.90985
G1 X127.845 Y91.746 E11.95826
G1 X127.947 Y91.783 E11.96367
G1 X128.683 Y92.063 E12.00296
G1 X129.012 Y92.21 E12.02094
G1 X129.613 Y92.52 E12.05467
G1 X132.101 Y93.763 E12.19343
G1 X134.593 Y94.92 E12.3305
G1 X137.116 Y96.007 E12.46756
G1 X139.658 Y97.016 E12.60401
G1 X142.218 Y97.95 E12.73996
G1 X145.09 Y98.893 E12.89077
G1 X145.673 Y99.105 E12.92172
G1 X146.683 Y99.554 E12.97686
G1 X147.396 Y99.896 E13.01632
G1 X147.833 Y100.151 E13.04156
G1 X148.228 Y100.475 E13.06705
G1 X148.984 Y101.205 E13.11948
G1 X149.529 Y101.763 E13.15839
G1 X149.853 Y102.152 E13.18365
G1 X150.114 Y102.592 E13.20917
G1 X150.6 Y103.588 E13.26446
G1 X150.911 Y104.28 E13.30231
G1 X151.041 Y104.62 E13.32047
G1 X151.288 Y105.396 E13.3611
G1 X152.155 Y107.981 E13.49713
G1 X153.103 Y110.569 E13.63463
G1 X154.123 Y113.124 E13.77189
G1 X155.206 Y115.629 E13.90804
G1 X156.355 Y118.093 E14.04368
M73 P5
G1 X157.68 Y120.712 E14.19011
G1 X157.939 Y121.266 E14.22062
G1 X158.332 Y122.282 E14.27497
G1 X158.389 Y122.44 E14.28335
G1 X158.602 Y123.05 E14.31558
G1 X158.731 Y123.539 E14.34082
G1 X158.78 Y124.043 E14.36608
G1 X158.8 Y125.121 E14.41987
G1 X158.79 Y125.883 E14.45789
G1 X158.743 Y126.386 E14.48309
G1 X158.618 Y126.877 E14.50837
G1 X158.304 Y127.795 E14.55678
G1 X157.988 Y128.63 E14.60132
G1 X157.841 Y128.96 E14.61934
G1 X157.53 Y129.563 E14.65319
G1 X156.287 Y132.051 E14.79195
G1 X155.13 Y134.543 E14.92902
G1 X154.043 Y137.066 E15.06608
G1 X153.034 Y139.608 E15.20252
G1 X152.1 Y142.168 E15.33848
G1 X151.157 Y145.04 E15.48929
G1 X150.945 Y145.623 E15.52024
G1 X150.496 Y146.633 E15.57538
G1 X150.154 Y147.346 E15.61483
G1 X149.899 Y147.783 E15.64008
G1 X149.575 Y148.179 E15.6656
G1 X148.868 Y148.912 E15.71641
G1 X148.749 Y149.03 E15.72477
G1 X148.282 Y149.484 E15.75726
G1 X147.892 Y149.807 E15.78253
G1 X147.458 Y150.064 E15.80769
G1 X146.557 Y150.505 E15.85774
G1 X146.461 Y150.55 E15.86303
G1 X145.766 Y150.862 E15.90104
G1 X145.427 Y150.992 E15.91915
G1 X144.649 Y151.24 E15.95989
G1 X142.069 Y152.105 E16.09565
G1 X139.481 Y153.053 E16.23315
G1 X136.926 Y154.073 E16.3704
G1 X134.421 Y155.156 E16.50656
G1 X131.957 Y156.305 E16.6422
G1 X129.338 Y157.63 E16.78863
G1 X128.784 Y157.889 E16.81914
G1 X127.768 Y158.282 E16.87349
M73 P6
G1 X127.61 Y158.339 E16.88187
G1 X127 Y158.552 E16.9141
G1 X126.511 Y158.681 E16.93933
G1 X126.007 Y158.73 E16.9646
G1 X124.929 Y158.75 E17.01839
G1 X124.167 Y158.74 E17.05641
G1 X123.664 Y158.693 E17.08161
G1 X123.173 Y158.568 E17.10689
G1 X122.255 Y158.254 E17.15529
G1 X122.153 Y158.217 E17.16071
G1 X121.417 Y157.937 E17.19999
G1 X121.088 Y157.79 E17.21797
G1 X120.487 Y157.48 E17.25171
G1 X117.999 Y156.237 E17.39047
G1 X115.507 Y155.08 E17.52754
G1 X112.984 Y153.993 E17.6646
G1 X110.442 Y152.984 E17.80104
G1 X107.89 Y152.053 E17.93657
G1 X104.995 Y151.102 E18.0886
G1 X104.426 Y150.895 E18.1188
G1 X103.399 Y150.438 E18.17488
G1 X102.703 Y150.104 E18.2134
G1 X102.266 Y149.849 E18.23864
G1 X101.87 Y149.523 E18.26423
G1 X101.206 Y148.881 E18.31031
G1 X100.559 Y148.222 E18.35639
G1 X100.234 Y147.834 E18.38164
G1 X99.965 Y147.385 E18.40775
G1 X99.91 Y147.276 E18.41384
G1 X99.667 Y146.768 E18.44194
G1 X99.5 Y146.412 E18.46155
G1 X99.188 Y145.718 E18.49952
G1 X99.058 Y145.377 E18.51772
G1 X98.81 Y144.598 E18.55851
G1 X97.941 Y142.007 E18.69485
G1 X97.001 Y139.441 E18.83119
G1 X95.977 Y136.876 E18.96898
G1 X94.894 Y134.371 E19.10513
G1 X93.745 Y131.907 E19.24077
G1 X92.42 Y129.288 E19.3872
G1 X92.161 Y128.734 E19.41771
G1 X91.768 Y127.718 E19.47206
G1 X91.711 Y127.56 E19.48044
G1 X91.498 Y126.95 E19.51268
M73 P7
G1 X91.369 Y126.461 E19.53791
G1 X91.32 Y125.957 E19.56317
G1 X91.3 Y124.879 E19.61696
G1 X91.31 Y124.117 E19.65498
G1 X91.357 Y123.614 E19.68019
G1 X91.482 Y123.123 E19.70546
G1 X91.796 Y122.205 E19.75387
G1 X92.108 Y121.376 E19.79806
G1 X92.259 Y121.039 E19.81648
G1 X92.57 Y120.437 E19.85029
G1 X93.813 Y117.949 E19.98904
G1 X94.97 Y115.456 E20.12616
G1 X96.052 Y112.944 E20.26262
G1 X97.061 Y110.405 E20.39892
G1 X97.997 Y107.84 E20.53515
G1 X98.942 Y104.964 E20.68618
G1 X99.155 Y104.377 E20.71733
G1 X99.604 Y103.367 E20.77247
G1 X99.946 Y102.654 E20.81193
G1 X100.201 Y102.217 E20.83717
G1 X100.525 Y101.821 E20.8627
G1 X101.232 Y101.088 E20.9135
G1 F2400 E13.9135
;MESH:A10_bed_wheel-no_cap.stl
G0 F3600 X103.024 Y102.881
G0 X103.933 Y103.789
G0 X111.463 Y111.413
G0 X111.533 Y111.483
;TYPE:WALL-INNER
G1 F2400 E20.9135
G1 F1200 X110.907 Y112.444 E20.97072
G1 X110.63 Y113.558 E21.02799
G1 X110.55 Y114.648 E21.08252
G1 X110.489 Y115.581 E21.12917
G1 X110.322 Y116.259 E21.164
G1 X109.977 Y116.781 E21.19522
G1 X109.38 Y117.265 E21.23356
G1 X108.539 Y117.808 E21.28351
G1 X107.637 Y118.474 E21.33945
G1 X106.887 Y119.347 E21.39687
G1 X106.512 Y120.431 E21.45409
G1 X106.599 Y121.577 E21.51143
G1 X106.993 Y122.645 E21.56822
G1 X107.47 Y123.577 E21.62046
M73 P8
G1 X107.822 Y124.358 E21.6632
G1 X107.937 Y125 E21.69573
G1 X107.822 Y125.642 E21.72827
G1 X107.472 Y126.42 E21.77084
G1 X106.993 Y127.355 E21.82325
G1 X106.599 Y128.423 E21.88004
G1 X106.512 Y129.569 E21.93738
G1 X106.887 Y130.653 E21.9946
G1 X107.637 Y131.526 E22.05202
G1 X108.539 Y132.192 E22.10796
G1 X109.38 Y132.735 E22.15791
G1 X109.977 Y133.219 E22.19625
G1 X110.322 Y133.741 E22.22747
G1 X110.489 Y134.419 E22.2623
G1 X110.55 Y135.352 E22.30895
G1 X110.63 Y136.442 E22.36348
G1 X110.907 Y137.556 E22.42075
G1 X111.533 Y138.517 E22.47797
G1 X112.494 Y139.143 E22.53519
G1 X113.608 Y139.42 E22.59246
G1 X114.698 Y139.5 E22.64698
G1 X115.631 Y139.561 E22.69363
G1 X116.309 Y139.728 E22.72847
G1 X116.831 Y140.073 E22.75968
G1 X117.315 Y140.67 E22.79802
G1 X117.858 Y141.511 E22.84797
G1 X118.524 Y142.413 E22.90391
G1 X119.397 Y143.163 E22.96133
G1 X120.481 Y143.537 E23.01854
G1 X121.627 Y143.451 E23.07587
G1 X122.695 Y143.057 E23.13266
G1 X123.627 Y142.58 E23.1849
G1 X124.408 Y142.228 E23.22764
G1 X125.05 Y142.113 E23.26018
G1 X125.692 Y142.228 E23.29271
G1 X126.473 Y142.58 E23.33545
G1 X127.405 Y143.057 E23.38769
G1 X128.473 Y143.451 E23.44448
G1 X129.619 Y143.537 E23.50182
G1 X130.703 Y143.163 E23.55902
G1 X131.576 Y142.413 E23.61644
G1 X132.242 Y141.511 E23.67238
G1 X132.785 Y140.67 E23.72233
G1 X133.269 Y140.073 E23.76067
G1 X133.791 Y139.728 E23.79189
M73 P9
G1 X134.469 Y139.561 E23.82672
G1 X135.402 Y139.5 E23.87337
G1 X136.492 Y139.42 E23.9279
G1 X137.606 Y139.143 E23.98517
G1 X138.567 Y138.517 E24.04239
G1 X139.193 Y137.556 E24.09961
G1 X139.47 Y136.442 E24.15688
G1 X139.55 Y135.352 E24.2114
G1 X139.611 Y134.419 E24.25805
G1 X139.778 Y133.741 E24.29289
G1 X140.123 Y133.219 E24.3241
G1 X140.72 Y132.735 E24.36244
G1 X141.561 Y132.192 E24.41239
G1 X142.463 Y131.526 E24.46833
G1 X143.213 Y130.653 E24.52575
G1 X143.587 Y129.569 E24.58296
G1 X143.501 Y128.423 E24.64029
G1 X143.107 Y127.355 E24.69708
G1 X142.628 Y126.42 E24.7495
G1 X142.278 Y125.642 E24.79206
G1 X142.163 Y125 E24.8246
G1 X142.278 Y124.358 E24.85714
G1 X142.63 Y123.577 E24.89988
G1 X143.107 Y122.645 E24.95211
G1 X143.501 Y121.577 E25.0089
G1 X143.587 Y120.431 E25.06624
G1 X143.213 Y119.347 E25.12345
G1 X142.463 Y118.474 E25.18087
G1 X141.561 Y117.808 E25.2368
G1 X140.72 Y117.265 E25.28675
G1 X140.123 Y116.781 E25.32509
G1 X139.778 Y116.259 E25.35631
G1 X139.611 Y115.581 E25.39114
G1 X139.55 Y114.648 E25.43779
G1 X139.47 Y113.558 E25.49232
G1 X139.193 Y112.444 E25.54959
G1 X138.567 Y111.483 E25.60681
G1 X137.606 Y110.857 E25.66403
G1 X136.492 Y110.58 E25.7213
G1 X135.402 Y110.5 E25.77582
G1 X134.469 Y110.439 E25.82247
G1 X133.791 Y110.272 E25.85731
G1 X133.269 Y109.927 E25.88852
G1 X132.785 Y109.33 E25.92687
M73 P10
G1 X132.242 Y108.489 E25.97681
G1 X131.576 Y107.587 E26.03275
G1 X130.703 Y106.837 E26.09017
G1 X129.619 Y106.462 E26.14739
G1 X128.473 Y106.549 E26.20473
G1 X127.405 Y106.943 E26.26153
G1 X126.472 Y107.42 E26.3138
G1 X125.692 Y107.772 E26.3565
G1 X125.05 Y107.887 E26.38904
G1 X124.408 Y107.772 E26.42158
G1 X123.628 Y107.42 E26.46427
G1 X122.695 Y106.943 E26.51655
G1 X121.627 Y106.549 E26.57334
G1 X120.481 Y106.462 E26.63068
G1 X119.397 Y106.837 E26.6879
G1 X118.524 Y107.587 E26.74532
G1 X117.858 Y108.489 E26.80126
G1 X117.315 Y109.33 E26.85121
G1 X116.831 Y109.927 E26.88955
G1 X116.309 Y110.272 E26.92077
G1 X115.631 Y110.439 E26.9556
G1 X114.698 Y110.5 E27.00225
G1 X113.608 Y110.58 E27.05678
G1 X112.494 Y110.857 E27.11405
G1 X111.533 Y111.483 E27.17126
G0 F3600 X111.463 Y111.413
G0 X106.244 Y118.292
G0 X106.16 Y118.239
G1 F1200 X106.405 Y117.64 E27.20355
G1 X106.912 Y116.422 E27.26937
G1 X106.996 Y114.457 E27.3675
G1 X106.404 Y112.58 E27.46569
G1 X105.22 Y111.036 E27.56276
G1 X103.831 Y110.001 E27.64918
G1 X102.95 Y108.739 E27.72597
G1 X102.554 Y107.266 E27.80206
G1 X102.687 Y105.748 E27.87809
G1 X103.333 Y104.361 E27.95442
G1 X104.411 Y103.283 E28.03048
G1 X105.798 Y102.637 E28.10682
G1 X107.316 Y102.504 E28.18284
G1 X108.789 Y102.9 E28.25894
G1 X110.051 Y103.781 E28.33572
G1 X111.086 Y105.17 E28.42214
M73 P11
G1 X112.63 Y106.354 E28.51921
G1 X114.507 Y106.946 E28.61741
G1 X116.472 Y106.862 E28.71553
G1 X118.289 Y106.109 E28.81366
G1 X119.74 Y104.779 E28.91186
G1 X120.648 Y103.034 E29.00999
G1 X120.902 Y101.106 E29.10701
G1 X120.653 Y99.389 E29.19357
G1 X120.92 Y97.874 E29.27032
G1 X121.683 Y96.555 E29.34634
G1 X122.85 Y95.574 E29.4224
G1 X124.287 Y95.05 E29.49871
G1 X125.813 Y95.05 E29.57484
G1 X127.25 Y95.574 E29.65115
G1 X128.417 Y96.555 E29.72721
G1 X129.18 Y97.874 E29.80324
G1 X129.447 Y99.389 E29.87999
G1 X129.198 Y101.106 E29.96654
G1 X129.452 Y103.034 E30.06356
G1 X130.36 Y104.779 E30.1617
G1 X131.811 Y106.109 E30.2599
G1 X133.628 Y106.862 E30.35803
G1 X135.593 Y106.946 E30.45615
